!!!!SEGMENT: pl-sa--l-1643--063_anonim--magnificat-wielkanocne.krn
!!!cenid: 16xx:1421
!!!COM: Anonim
!!!COM-rismid: pe30004985
!!!CDT:
!!!CNT:
!!!OTL: Magnificat Wielkanocne
!!!PDT:
!!!AGN: Sacred
!!!SMS-siglum: PL-SA
!!!SMS-shelfmark: L 1643
!!!SMS-shelfwork: 063 W
!!!SMS-variant:
!!!SMS-altvar:
!!!NIFC-rismid: 1001064477
!!!URL-scan: http://repozytorium.nifc.pl/skany/pl-sa-nut--l1643
!!!ONB-nifc: UWAGA: 8 ksiąg. Primi chori: 1mus Cantus (102-104), C 2dus (100-103), C 3tius (93-97), Bassus (96-100); Secondi chori: Primus Cantus (93-95), C 2dus (96-98), Altus (x), Bassus (96-98). UWAGA: Nie dodawać pustych linii, chyba że w rękopisie pojawiają się dodatkowe oznaczenia dotyczące pełnej obsady (a 4, a 8 itp.)
!!!key:
**kern	**text	**kern	**text	**kern	**text	**kern	**text	**kern	**text	**kern	**text	**kern	**text
*group2	*	*group2	*	*group2	*	*group1	*	*group1	*	*group1	*	*group1	*
*part7	*part7	*part6	*part6	*part5	*part5	*part4	*part4	*part3	*part3	*part2	*part2	*part1	*part1
*staff7	*staff7	*staff6	*staff6	*staff5	*staff5	*staff4	*staff4	*staff3	*staff3	*staff2	*staff2	*staff1	*staff1
*Iempty	*	*Iempty	*	*Iempty	*	*Iempty	*	*Iempty	*	*Iempty	*	*Iempty	*
*I"Baſsus 2di Chori.	*	*I"Cantus 2dus Secundi Chori.	*	*I"Primus Cantus 2di Chori	*	*I"Bassus Primi Chori.	*	*I"Cantus 3tius Primi Chori	*	*I"Cantus 2dus Primi Chori.	*	*I"Im(us) Cantus Primi Chori	*
*I'[Coro 2 B]	*	*I'[Coro 2 C 2]	*	*I'[Coro 2 C 1]	*	*I'[Coro 1 B]	*	*I'[Coro 1 C 3]	*	*I'[Coro 1 C 2]	*	*I'[Coro 1 C 1]	*
*clefC3	*	*clefC1	*	*clefG2	*	*clefC3	*	*clefC1	*	*clefC1	*	*clefG2	*
*k[b-]	*	*k[b-]	*	*k[b-]	*	*k[b-]	*	*k[b-]	*	*k[b-]	*	*k[b-]	*
*g:	*	*g:	*	*g:	*	*g:	*	*g:	*	*g:	*	*g:	*
*M2/1	*	*M2/1	*	*M2/1	*	*M2/1	*	*M2/1	*	*M2/1	*	*M2/1	*
*met(C|)	*	*met(C|)	*	*met(C|)	*	*met(C|)	*	*met(C|)	*	*met(C|)	*	*met(C|)	*
=1-	=1-	=1-	=1-	=1-	=1-	=1-	=1-	=1-	=1-	=1-	=1-	=1-	=1-
00r	.	00r	.	0r	.	0r	.	2r	.	2r	.	2g/	Et
.	.	.	.	.	.	.	.	2d/	Et	2d/	Et	4dd\	e-
.	.	.	.	.	.	.	.	.	.	.	.	4dd\	-xul-
.	.	.	.	.	.	.	.	4a\	e-	4a\	e-	2a/	-ta-
.	.	.	.	.	.	.	.	4a\	-xul-	4a\	-xul-	.	.
.	.	.	.	.	.	.	.	2e/	-ta-	2e/	-ta-	2cc\	-vit
=2-	=2-	=2-	=2-	=2-	=2-	=2-	=2-	=2-	=2-	=2-	=2-	=2-	=2-
.	.	.	.	1r	.	2G/	Et	4g\	-vit	4g/	-vit	4.b-/	Spi-
.	.	.	.	.	.	.	.	4g\	spi-	4g/	spi-	.	.
.	.	.	.	.	.	.	.	.	.	.	.	8b-/	-ri-
.	.	.	.	.	.	4d\	e-	4f/	-ri-	4f/	-ri-	2a/	-tus
.	.	.	.	.	.	4d\	-xul-	4f/	-tus	4f/	-tus	.	.
.	.	.	.	2r	.	2A/	-ta-	1e	me-	1e	me-	2a/	me-
.	.	.	.	2g/	Et	2c/	-vit	.	.	.	.	2g/	-us
=3-	=3-	=3-	=3-	=3-	=3-	=3-	=3-	=3-	=3-	=3-	=3-	=3-	=3-
1r	.	2d/	Et	4dd\	e-	4.B-/	Spi-	4f/	-us	4f/	-us	1r	.
*	*	*	*	*	*	*	*	*	*	*	*ij	*	*
.	.	.	.	4dd\	-xul-	.	.	4f/	spi-	4f/	spi-	.	.
.	.	.	.	.	.	8B-/	-ri-	.	.	.	.	.	.
.	.	4a\	e-	2a/	-ta-	2A/	-tus	4e/	-ri-	4e/	-ri-	.	.
.	.	4a\	-xul-	.	.	.	.	4e/	-tus	4e/	-tus	.	.
2r	.	2e/	-ta-	4cc\	-vit	2A/	me-	2e/	me-	2e/	me-	2r	.
.	.	.	.	4cc\	ſpi-	.	.	.	.	.	.	.	.
2G/	Et	4g/	-vit	4b-/	-ri-	2G/	-us	2d/	-us	2d/	-us	2dd\	et
*	*	*	*	*	*	*	*	*	*	*	*Xij	*	*
.	.	4g/	ſpi-	4b-/	-tus	.	.	.	.	.	.	.	.
=4-	=4-	=4-	=4-	=4-	=4-	=4-	=4-	=4-	=4-	=4-	=4-	=4-	=4-
!	!	!	!	!	!	!	!	!	!	!	!	!LO:SIC:v:s:t=4dd	!
4d\	e-	4f#X/	-ri-	1a	me-	0r	.	0r	.	0r	.	4ee\	e-
!	!	!	!	!	!	!	!	!	!	!	!	!LO:SIC:v:s:t=4dd	!
4d\	-xul-	4f#/	-tus	.	.	.	.	.	.	.	.	4ee\	-xul-
!	!	!	!	!	!	!	!	!	!	!	!	!LO:SIC:v:s:t=2e	!
2A/	-ta-	2e/	me-	.	.	.	.	.	.	.	.	2ff\	-ta-
4c/	-vit	4e/	-us	4g,>/	-us	.	.	.	.	.	.	4ee\	-vit
*	*	*	*	*	*ij	*	*	*	*	*	*	*	*
4c/	ſpi-	4e/	ſpi-	4g/	ſpi-	.	.	.	.	.	.	4gg\	ſpi-
4B-/	-ri-	4d/	-ri-	4b-/	-ri-	.	.	.	.	.	.	4dd\	-ri-
4G/	-tus	4g/	-tus	4b-/	-tus	.	.	.	.	.	.	4dd\	-tus
=5-	=5-	=5-	=5-	=5-	=5-	=5-	=5-	=5-	=5-	=5-	=5-	=5-	=5-
2d\	me-	2f#X/	me-	2a/	me-	2r	.	2r	.	2r	.	2dd\	me-
4d\	-us	4f#/	-us	4a,>/	-us	2g\	Spi-	4r	.	4r	.	4dd\	-(us)
*	*ij	*	*ij	*	*Xij	*	*	*	*	*	*	*	*
4G/	ſpi-	4g/	ſpi-	4dd\	ſpi-	.	.	4g/	spi-	4g/	spi-	4b-\	Spi-
!	!	!	!	!	!	!	!	!	!	!	!	!LO:SIC:v:t=custos b-	!
!	!	!	!	!	!	!	!	!	!	!	!	!LO:LB:g=original	!
4G/	-ri-	4g/	-ri-	4dd\	-ri-	4g\	-ri-	4g/	-ri-	4g/	-ri-	4b-/	-ri-
4G/	-tus	4b-\	-tus	4dd\	-tus	4g\	-tus	4g/	-tus	4g/	-tus	4b-/	-tus
!	!	!	!	!	!	!	!	!	!	!LO:SIC:v:t=custos f#	!	!	!
!	!	!	!	!	!	!	!	!	!	!LO:LB:g=original	!	!	!
!	!	!	!	!	!	!	!	!LO:TX:t=P:problem=niewyraźne źródło	!	!	!	!	!
2d\	me-	2a\	me-	2dd\	me-	2d\	me-	2f#X/	me-	2f#X/	me-	2.dd\	me-
=6-	=6-	=6-	=6-	=6-	=6-	=6-	=6-	=6-	=6-	=6-	=6-	=6-	=6-
!	!	!LO:TX:t=P:problem=kreska pseudotaktowa	!	!LO:TX:t=P:problem=kreska pseudotaktowa	!	!	!	!	!	!LO:TX:t=P:problem=kreska pseudotaktowa	!	!	!
1G	-us	1g	-us	1dd	-us	1g	-us	1g,>	-us	1g	-us	.	.
*	*Xij	*	*Xij	*	*	*	*	*	*	*	*	*	*
.	.	.	.	.	.	.	.	.	.	.	.	4cc\	.
!	!	!	!	!	!	!	!	!	!	!	!	!LO:TX:t=P:problem=kreska pseudotaktowa	!
!	!	!	!	!	!	!	!	!	!	!	!	!LO:TX:t=P:problem=# below	!
!	!	!	!	!	!	!	!	!	!	!	!	!LO:N:acc=#	!
.	.	.	.	.	.	.	.	.	.	.	.	2bn/	-us
1r	.	1r	.	1r	.	2d\	in	2a\	in	2a\	In	2dd\	In
!	!	!	!	!	!	!LO:TX:t=P:problem=# below	!	!	!	!	!	!	!
.	.	.	.	.	.	4c#X/	De-	4a\	de-	4a\	De-	4ee\	De-
.	.	.	.	.	.	4c#/	-o	4a\	-o	4a\	-o	4ee\	-o
!	!	!	!	!	!	!	!	!LO:SIC:v:t=custos f	!	!	!	!	!
!	!	!	!	!	!	!	!	!LO:PB:g=original	!	!	!	!	!
=7-	=7-	=7-	=7-	=7-	=7-	=7-	=7-	=7-	=7-	=7-	=7-	=7-	=7-
2d\	in	2a\	in	2dd\	in	2d\	sa-	4.fny/	sa-	4.fny/	sa-	2ff\	ſa-
.	.	.	.	.	.	.	.	8g/	.	8g/	.	.	.
4c#X/	De-	4a\	De-	4ee\	De-	2A/	-lu-	2a\	-lu-	2a\	-lu-	2ee\	-lu-
4c#/	-o	4e/	-o	4ee\	-o	.	.	.	.	.	.	.	.
!	!	!	!	!LO:SIC:v:t=custos ff	!	!	!	!	!	!	!	!	!
!	!	!	!	!LO:LB:g=original	!	!	!	!	!	!	!	!	!
2d\	sa-	2a\	ſa-	2ff\	sa-	4d\	-ta-	4a\	-ta-	4a\	-ta-	4dd\	-ta-
.	.	.	.	.	.	4d\	-ri	4a\	-ri	4a\	-ri	4dd\	-ri
2a\	-lu-	2a\	-lu-	2ee\	-lu-	2A/	me-	2a\	me-	2a\	me-	2cc#X\	me-
!	!	!LO:SIC:v:t=custos f	!	!	!	!	!	!	!	!	!	!	!
!	!	!LO:LB:g=original	!	!	!	!	!	!	!	!	!	!	!
=8-	=8-	=8-	=8-	=8-	=8-	=8-	=8-	=8-	=8-	=8-	=8-	=8-	=8-
4d\	-ta-	4.fny/	-ta-	4dd\	-ta-	4d\	-o	4a\	-o	4a\	-o	4dd\	-o
*	*	*	*	*	*	*	*ij	*	*	*	*ij	*	*
4d\	-ri	.	.	4dd\	-ri	4d\	in	4dd\	in	4dd\	In	4dd\	in
.	.	8g/	-ri	.	.	.	.	.	.	.	.	.	.
2A/	me-	2a\	me-	2cc#X\	me-	4a\	De-	4a\	de-	4a\	De-	4ee\	De-
.	.	.	.	.	.	4a\	-o	4a\	-o	4a\	-o	4ee\	-o
!LO:SIC:v:t=custos d	!	!	!	!	!	!	!	!	!	!	!	!	!
!LO:LB:g=original	!	!	!	!	!	!	!	!	!	!	!	!	!
4d\	-o	4a,>\	-o	4dd\	-o	2d\	sa-	4.f/	sa-	4.f/	sa-	2ff\	ſa-
*	*ij	*	*	*	*	*	*	*	*	*	*	*	*
4d\	in	4d/	in	4dd\	in	.	.	.	.	.	.	.	.
.	.	.	.	.	.	.	.	8g/	.	8g/	.	.	.
!	!	!	!	!	!	!LO:LB:g=original	!	!	!	!	!	!	!
4c#X/	De-	4a\	De-	4ee\	De-	2A/	-lu-	2a\	-lu-	2a\	-lu-	2ee\	-lu-
4c#/	-o	4a\	-o	4ee\	-o	.	.	.	.	.	.	.	.
=9-	=9-	=9-	=9-	=9-	=9-	=9-	=9-	=9-	=9-	=9-	=9-	=9-	=9-
2d\	sa-	4.f/	ſa-	2ff\	ſa-	4d\	-ta-	4a\	-ta-	4a\	-ta-	4dd\	-ta-
.	.	.	.	.	.	4d\	-ri	4a\	-ri	4a\	-ri	4dd\	-ri
.	.	8g/	.	.	.	.	.	.	.	.	.	.	.
2a\	-lu-	2a\	-lu-	2ee\	-lu-	2A/	me-	2a\	me-	2a\	me-	2cc#X\	me-
4d\	-ta-	4a\	-ta-	4dd\	-ta-	4d\,>	-o	4f#X/	-o	4f#X/	-o	4dd,>\	-o
*	*	*	*	*	*	*	*Xij	*	*	*	*Xij	*	*ij
4d\	-ri	4a\	-ri	4dd\	-ri	4d\	in	4f#/	in	4f#/	in	4dd\	in
2A/	me-	2a\	me-	2cc#X\	me-	4a\	De-	4a\	de-	4a\	De-	4ee\	De-
.	.	.	.	.	.	4a\	-o	4a\	-o	4a\	-o	4ee\	-o
=10-	=10-	=10-	=10-	=10-	=10-	=10-	=10-	=10-	=10-	=10-	=10-	=10-	=10-
!	!	!	!	!	!	!	!	!	!	!	!	!LO:SIC:v:s:t=2ff#	!
2d\	-o	4f#X,>/	-o	2dd\	-o	2d\	ſa-	4a\	sa-	4a\	ſa-	2ff\	ſa-
*	*Xij	*	*	*	*	*	*	*	*	*	*	*	*
!	!	!	!	!	!	!	!	!LO:SIC:v:s:t=4f#	!	!LO:SIC:v:s:t=4f#	!	!	!
.	.	2a\	ſa-	.	.	.	.	4fny/	-lu-	4fny/	-lu-	.	.
!	!	!	!	!	!	!LO:TX:t=P:problem=# below	!	!	!	!	!	!	!
4a\	sa-	.	.	4ee\	ſa-	2c#X/	-lu-	2a\	-ta-	2a\	-ta-	2ee\	-lu-
4a\	-lu-	4a\	-lu-	4ee\	-lu-	.	.	.	.	.	.	.	.
!	!	!	!	!	!	!	!	!LO:SIC:v:t=custos a	!	!	!	!LO:SIC:v:t=custos dd	!
!	!	!	!	!	!	!	!	!LO:LB:g=original	!	!	!	!LO:LB:g=original	!
4d\	-ta-	4a\	-ta-	4ff\	-ta-	4d\	-ta-	2a\	-ri	2a\	-ri	4dd\	-ta-
!	!	!	!	!LO:SIC:v:s:t=4ff#	!	!	!	!	!	!	!	!	!
4d\	-ri	4f#X/	-ri	4ff\	-ri	4d\	-ri	.	.	.	.	4dd\	-ri
!	!	!	!	!	!	!	!	!	!	!LO:SIC:v:t=custos a	!	!	!
!	!	!	!	!	!	!	!	!	!	!LO:LB:g=original	!	!	!
2A/	me-	2a\	me-	2ee\	me-	2a\	me-	2a\	me-	2a\	me-	2cc#X\	me-
=11-	=11-	=11-	=11-	=11-	=11-	=11-	=11-	=11-	=11-	=11-	=11-	=11-	=11-
!	!	!	!	!LO:TX:t=P:problem=kreska pseudotaktowa	!	!	!	!	!	!LO:TX:t=P:problem=kreska pseudotaktowa	!	!LO:TX:t=P:problem=kreska pseudotaktowa	!
1d	-o	1f#X	-o	1dd	-o	1d	-o	1a	-o,	1a	-o	1dd	-o
*	*	*	*	*	*	*	*	*	*	*	*	*	*Xij
00r	.	1r	.	00r	.	2G/	ſa-	2r	.	2r	.	2gg\	Sa-
.	.	.	.	.	.	2cny/	-lu-	2cc\	sa-	2cc\	ſa-	2ee\	-lu-
=12-	=12-	=12-	=12-	=12-	=12-	=12-	=12-	=12-	=12-	=12-	=12-	=12-	=12-
.	.	0r	.	.	.	2F/	-ta-	2a\	-lu-	2a\	-lu-	2ff\	-ta-
.	.	.	.	.	.	2B-/	-ri	2b-\	-ta-	2b-\	-ra-	2dd\	-ri
.	.	.	.	.	.	(>2F/	me-	2a\	-ri	2a\	-ri	2.ccny\	me-
.	.	.	.	.	.	2G/)	.	2g\	me-	2g\	me-	.	.
.	.	.	.	.	.	.	.	.	.	.	.	4b-y/	.
=13-	=13-	=13-	=13-	=13-	=13-	=13-	=13-	=13-	=13-	=13-	=13-	=13-	=13-
.	.	2r	.	.	.	1d	-o	1f#X	-o	1f#X	-o	1a	-o
.	.	2dd\	ſa-	.	.	.	.	.	.	.	.	.	.
*	*ij	*	*	*	*	*	*	*	*	*	*	*	*
2G/	sa-	2b-\	-lu-	2gg\	ſa-	2.g\	ſa-	1r	.	1r	.	00r	.
2cny/	-lu-	2cc\	-ta-	2ee\	-lu-	.	.	.	.	.	.	.	.
.	.	.	.	.	.	4c/	-lu-	.	.	.	.	.	.
=14-	=14-	=14-	=14-	=14-	=14-	=14-	=14-	=14-	=14-	=14-	=14-	=14-	=14-
*	*	*	*	*	*	*	*	*	*	*	*ij	*	*
2F/	-ta-	2a\	-ri	2ff\	-ta-	2f\	-ta-	4a\	sa-	4a\	ſa-	.	.
.	.	.	.	.	.	.	.	4a\	-lu-	4a\	-lu-	.	.
2B-/	-ri	2b-\	me-	2dd\	-ri	2f\	-ri	4fny/	-ta-	4fny/	-ra-	.	.
.	.	.	.	.	.	.	.	4f/	-ri	4f/	-ri	.	.
2.F/	me-	2a\	-o	2.ccny\	me-	2.f\	me-	4.f/	me-	4.f/	me-	.	.
.	.	.	.	.	.	.	.	8g/	.	8g/	.	.	.
.	.	(>4a\	me-	.	.	.	.	4a\	.	4a\	.	.	.
4G/	-o	4g\)	.	4b-/	.	4d\	-o	4d/	-o	4d/	-o	.	.
*	*Xij	*	*	*	*	*	*	*	*	*	*Xij	*	*
=15-	=15-	=15-	=15-	=15-	=15-	=15-	=15-	=15-	=15-	=15-	=15-	=15-	=15-
1d	.	1f#X	-o.	1a	-o	1r	.	1r	.	1r	.	.	.
!	!	!LO:SIC:v:t=custos d	!	!	!	!	!	!	!	!	!	!	!
!	!	!LO:LB:g=original	!	!	!	!	!	!	!	!	!	!	!
1r	.	00r	.	1r	.	2g\	sa-	2r	.	2r	.	2g/	Sa-
.	.	.	.	.	.	4.d\	-lu-	2b-\	sa-	2b-\	Sa-	2dd\	-lu-
.	.	.	.	.	.	8e\	.	.	.	.	.	.	.
=16-	=16-	=16-	=16-	=16-	=16-	=16-	=16-	=16-	=16-	=16-	=16-	=16-	=16-
0r	.	.	.	0r	.	2f\	-ta-	4a\	-lu-	4a\	-lu-	2a/	-ta-
.	.	.	.	.	.	.	.	2cc\	-ta-	2cc\	-ta-	.	.
.	.	.	.	.	.	2c\	-ri	.	.	.	.	2cc\	-ri
.	.	.	.	.	.	.	.	4g/	-ri	4g/	-ri	.	.
!	!	!	!	!	!	!	!	!LO:TX:t=P:problem=kropka w następnym systemie	!	!	!	!	!
.	.	.	.	.	.	8G/L	me-	2.g/	me-	2.g/	me-	2b-/	me-
.	.	.	.	.	.	8A/	.	.	.	.	.	.	.
.	.	.	.	.	.	8B-/	.	.	.	.	.	.	.
.	.	.	.	.	.	8c/J	.	.	.	.	.	.	.
.	.	.	.	.	.	2d\	.	.	.	.	.	2a/	.
!	!	!	!	!	!	!	!	!LO:SIC:v:t=custos f#	!	!	!	!	!
!	!	!	!	!	!	!	!	!LO:LB:g=original	!	!	!	!	!
.	.	.	.	.	.	.	.	4f#X/	.	4f#X/	.	.	.
!	!	!	!	!LO:SIC:v:t=custos g	!	!LO:SIC:v:t=custos G	!	!	!	!	!	!	!
!	!	!	!	!LO:LB:g=original	!	!LO:LB:g=original	!	!	!	!	!	!	!
=17-	=17-	=17-	=17-	=17-	=17-	=17-	=17-	=17-	=17-	=17-	=17-	=17-	=17-
2r	.	.	.	2r	.	1G	-o	1g	-o,	1g	-o	1g	-o
4.G/	ſa-	.	.	2g/	ſa-	.	.	.	.	.	.	.	.
8A/	.	.	.	.	.	.	.	.	.	.	.	.	.
4.B-/	.	4.d/	ſa-	2dd\	-lu-	00r	.	00r	.	00r	.	00r	.
8c/	.	8e/	.	.	.	.	.	.	.	.	.	.	.
2d\	-lu-	4.fny/	.	2a/	-ta-	.	.	.	.	.	.	.	.
.	.	8g/	.	.	.	.	.	.	.	.	.	.	.
!LO:SIC:v:t=custos a	!	!	!	!	!	!	!	!	!	!	!	!	!
!LO:LB:g=original	!	!	!	!	!	!	!	!	!	!	!	!	!
=18-	=18-	=18-	=18-	=18-	=18-	=18-	=18-	=18-	=18-	=18-	=18-	=18-	=18-
4.A/	-ta-	2a\	-lu-	1cc	-ri	.	.	.	.	.	.	.	.
8B-/	.	.	.	.	.	.	.	.	.	.	.	.	.
2c/	-ri	4.e/	-ta-	.	.	.	.	.	.	.	.	.	.
.	.	8f/	.	.	.	.	.	.	.	.	.	.	.
8G/L	me-	2g/	-ri	(>2b-/	me-	.	.	.	.	.	.	.	.
8A/J	.	.	.	.	.	.	.	.	.	.	.	.	.
8B-/L	.	.	.	.	.	.	.	.	.	.	.	.	.
8c/J	.	.	.	.	.	.	.	.	.	.	.	.	.
2d\	.	2f#X/	me-	2a/)	.	.	.	.	.	.	.	.	.
=19-	=19-	=19-	=19-	=19-	=19-	=19-	=19-	=19-	=19-	=19-	=19-	=19-	=19-
1G	-o	1g	-o	1g	-o	.	.	.	.	.	.	.	.
*	*	*	*	*	*	*	*	*	*	*	*ij	*	*
1r	.	1r	.	1r	.	4.d\	sa-	4.fny/	sa-	4.fny/	Sa-	2f/	Sa-
.	.	.	.	.	.	8c/	-lu-	8e/	-lu-	8e/	-lu-	.	.
!	!	!	!	!	!	!	!	!	!	!LO:SIC:v:t=custos d	!	!	!
.	.	.	.	.	.	4B-/	-ta-	4d/	-ta-	4d/	-ta-	2g/	-lu-
.	.	.	.	.	.	4G/	-ri	4d/	-ri	4d/	-ri	.	.
=20-	=20-	=20-	=20-	=20-	=20-	=20-	=20-	=20-	=20-	=20-	=20-	=20-	=20-
4.d\	sa-	4.fny/	ſa-	2f/	ſa-	2d\	me-	2d/	me-	2d/	me-	2a/	-ta-
8c/	-lu-	8e/	-lu-	.	.	.	.	.	.	.	.	.	.
4B-/	-ta-	4d/	-ta-	2g/	-lu-	2g\	-o	2d/	-o,	2d/	-o	2g/	-ri
*	*	*	*	*	*	*	*ij	*	*	*	*ij	*	*
4G/	-ri	4d/	-ri	.	.	.	.	.	.	.	.	.	.
2d\	me-	2d/	me-	2a/	-ta-	4.d\	sa-	4r	.	4r	.	4r	.
*	*	*	*	*	*	*	*	*	*	*	*ij	*	*
.	.	.	.	.	.	.	.	8f/	sa-	8f/	Sa-	4f/	Sa-
.	.	.	.	.	.	8c\	-lu-	8e/	-lu-	8e/	-lu-	.	.
2G/	-o	2d/	-o	2g/	-ri	4B-/	-ta-	4d/	-ta-	4d/	-ta-	2g/	-lu-
.	.	.	.	.	.	4G/	-ri	4d/	-ri	4d/	-ri	.	.
=21-	=21-	=21-	=21-	=21-	=21-	=21-	=21-	=21-	=21-	=21-	=21-	=21-	=21-
4r	.	4r	.	4r	.	2d\	me-	2d/	me-	2d/	me-	2a/	-ta-
*	*ij	*	*ij	*	*ij	*	*	*	*	*	*	*	*
8d\	sa-	8f/	ſa-	4f/	ſa-	.	.	.	.	.	.	.	.
8c\	-lu-	8e/	-lu-	.	.	.	.	.	.	.	.	.	.
*	*	*	*	*	*	*	*	*	*	*	*Xij	*	*
4B-/	-ta-	4d/	-ta-	2g/	-lu-	2G/	-o	2d/	-o,	2d/	-o	2g/	-ri
*	*	*	*	*	*	*	*Xij	*	*	*	*	*	*
4G/	-ri	2g/	-ri	.	.	.	.	.	.	.	.	.	.
2d\	me-	.	.	2a/	-ta-	0r	.	0r	.	0r	.	1r	.
.	.	4f#X/	me-	.	.	.	.	.	.	.	.	.	.
2G/	-o	2g/	-o	2g/	-ri	.	.	.	.	.	.	.	.
*	*Xij	*	*Xij	*	*Xij	*	*	*	*	*	*	*	*
!	!	!	!	!	!	!	!	!	!	!	!	!LO:SIC:v:t=custos cc	!
!	!	!	!	!	!	!	!	!	!	!	!	!LO:LB:g=original	!
=22-	=22-	=22-	=22-	=22-	=22-	=22-	=22-	=22-	=22-	=22-	=22-	=22-	=22-
00r	.	00r	.	00r	.	.	.	.	.	.	.	2cc\	Sa-
.	.	.	.	.	.	.	.	.	.	.	.	2a/	-lu-
.	.	.	.	.	.	2g\	sa-	4r	.	4r	.	2b-/	-ta-
.	.	.	.	.	.	.	.	2g/	sa-	2g/	ſa-	.	.
.	.	.	.	.	.	2d\	-lu-	.	.	.	.	2dd\	-ri
.	.	.	.	.	.	.	.	4f/	-lu-	4f/	-lu-	.	.
=23-	=23-	=23-	=23-	=23-	=23-	=23-	=23-	=23-	=23-	=23-	=23-	=23-	=23-
.	.	.	.	.	.	2f\	-ta-	2a\	-ta-	2a\	-ta-	2.cc\	me-
.	.	.	.	.	.	2c\	-ri	2g/	-ri	2g/	-ri	.	.
.	.	.	.	.	.	.	.	.	.	.	.	4b-/	.
.	.	.	.	.	.	2d\	me-	2f#X/	me-	2f#X/	me-	2a/	.
.	.	.	.	.	.	2G/	-o	2g/	-o	2g/	-o	2g/	-o
!	!	!	!	!	!	!	!	!LO:SIC:v:t=custos g	!	!	!	!	!
!	!	!	!	!	!	!	!	!LO:LB:g=original	!	!	!	!	!
=24-	=24-	=24-	=24-	=24-	=24-	=24-	=24-	=24-	=24-	=24-	=24-	=24-	=24-
4r	.	4r	.	4r	.	4r	.	4r	.	4r	.	4r	.
*	*	*	*	*	*	*	*	*	*	*	*ij	*	*
2G/	sa-	4.g/	ſa-	2dd\	ſa-	2g\	ſa-	2g/	sa-	2g/	ſa-	2b-/	Sa-
.	.	8a\	.	.	.	.	.	.	.	.	.	.	.
4G/	-lu-	4b-\	-lu-	4dd\	-lu-	4g\	-lu-	4dd\	-lu-	4dd\	-lu-	4b-/	-lu-
2c/	-ta-	2g/	-ta-	2ee-X\	-ta-	2c/	-ta-	2cc\	-ta-	2cc\	-ta-	2cc\	-ta-
4.B-/	-ri	1g\	-ri	4dd\	-ri	2g\	-ri	2b-\	-ri	2b-\	-ri	2dd\	-ri
.	.	.	.	2dd\	me-	.	.	.	.	.	.	.	.
8c/	.	.	.	.	.	.	.	.	.	.	.	.	.
=25-	=25-	=25-	=25-	=25-	=25-	=25-	=25-	=25-	=25-	=25-	=25-	=25-	=25-
1d	me-	.	.	.	.	1d	me-	1a	me-	1a	me-	1dd	me-
.	.	.	.	8cc\L	.	.	.	.	.	.	.	.	.
.	.	.	.	8b-\J	.	.	.	.	.	.	.	.	.
!	!	!LO:TX:t=P:problem=# below	!	!	!	!	!	!	!	!	!	!	!
.	.	2f#X/	me-	2a/	.	.	.	.	.	.	.	.	.
!	!	!	!	!LO:N:acc=#	!	!	!	!	!	!	!	!	!
0G;;	-o	0g;;	-o.	0bn;;	-o	0g;;	-o.	0g;;	-o,	0g;;	-o	0dd;;	-o.
*	*	*	*	*	*	*	*	*	*	*	*Xij	*	*
!LO:LB:g=original	!	!LO:LB:g=original	!	!LO:LB:g=original	!	!LO:LB:g=original	!	!	!	!LO:LB:g=original	!	!LO:LB:g=original	!
=26||-	=26||-	=26||-	=26||-	=26||-	=26||-	=26||-	=26||-	=26||-	=26||-	=26||-	=26||-	=26||-	=26||-
4G/	Qui-	4g\	Qui-	4b-/	Qui-	4g\	Qui-	4g/	Qui-	4g/	Qui-	1dd	Qui-
4G/	-a	4g\	-a	4b-/	-a	4g\	-a	4g/	-a	4g/	-a	.	.
4d\	fe-	4a\	fe-	4dd\	fe-	4d\	fe-	4f#X/	fe-	4f#X/	fe-	.	.
4d\	-cit	4a\	-cit	4dd\	-cit	4d\	-cit	4f#/	-cit	4f#/	-cit	.	.
4g\	mi-	4g/	mi-	4b-/	mi-	4G/	mi-	4g/	mi-	4g/	mi-	1dd	-a
4g\	-hi-	4g/	-hi-	4b-/	-hi-	4G/	-hi-	4g/	-hi-	4g/	-hi	.	.
4d\	-ma-	4f#X/	-ma-	4a/	-ma-	4d\	-ma-	4a\	-ma-	4a\	ma-	.	.
4d\	-gna	4f#/	-gna	4a/	-gna	4d\	-gna	4a\	-gna	4a\	-gna	.	.
=27-	=27-	=27-	=27-	=27-	=27-	=27-	=27-	=27-	=27-	=27-	=27-	=27-	=27-
*	*	*	*	*	*	*	*ij	*	*	*	*ij	*	*
0r	.	1r	.	1r	.	4g\	Qui-	4b-\	qui-	4b-\	Qui-	2dd\	fe-
.	.	.	.	.	.	4g\	-a	4b-\	-a	4b-\	-a	.	.
.	.	.	.	.	.	4a\	fe-	4a\	fe-	4a\	fe-	2cc\	-cit
.	.	.	.	.	.	4f\	-cit	4a\	-cit	4a\	-cit	.	.
.	.	2d/	mi-	2b-/	mi-	2g\	mi-	(>4b-\	mi-	(>4b-\	mi-	2dd\	mi-
.	.	.	.	.	.	.	.	4cc\)	.	4cc\)	.	.	.
.	.	2d/	-hi	2a/	-hi	2f\	-hi-	1dd\	-hi	1dd\	-hi	2ff\	-hi-
=28-	=28-	=28-	=28-	=28-	=28-	=28-	=28-	=28-	=28-	=28-	=28-	=28-	=28-
1r	.	1e	ma-	1g	ma-	1e	-ma-	.	.	.	.	1gg	-ma-
.	.	.	.	.	.	.	.	2cc#X\	ma-	2cc#X\	ma-	.	.
!	!	!	!	!	!	!	!	!LO:SIC:v:t=custos dd	!	!	!	!	!
!	!	!	!	!	!	!	!	!LO:LB:g=original	!	!	!	!	!
4r	.	4d/	-gna	4f/	-gna	1d	-gna	2dd\	-gna	2dd\	-gna	2dd\	-gna
*	*	*	*ij	*	*ij	*	*Xij	*	*	*	*Xij	*	*
2d\	mi-	2fny/	mi-	2ff\	mi-	.	.	.	.	.	.	.	.
!	!	!	!	!	!	!	!	!LO:TX:t=P:problem=niewyraźne źródło	!	!	!	!	!
.	.	.	.	.	.	.	.	4ryy	.	4r	.	2r	.
4c/	-hi	4g/	-hi	4eeny\	-hi	.	.	4g/	mi-	4g/	mi-	.	.
=29-	=29-	=29-	=29-	=29-	=29-	=29-	=29-	=29-	=29-	=29-	=29-	=29-	=29-
2B-/	ma-	(<2d/	ma-	2.dd\	ma-	4r	.	4.fny/	-hi	4.fny/	-hi	0r	.
.	.	.	.	.	.	4d\	qui	.	.	.	.	.	.
.	.	.	.	.	.	.	.	8g/	.	8g/	.	.	.
2A/	.	2e/)	.	.	.	4a\	Po-	2a\	ma-	2a\	ma-	.	.
.	.	.	.	4cc#X\	.	4a\	-tens	.	.	.	.	.	.
1d	-gna	1f#X	-gna	1dd	-gna	1d	est	1a	-gna	1a	-gna	.	.
*	*	*	*Xij	*	*Xij	*	*	*	*	*	*	*	*
=30-	=30-	=30-	=30-	=30-	=30-	=30-	=30-	=30-	=30-	=30-	=30-	=30-	=30-
0r	.	0r	.	0r	.	00r	.	00r	.	00r	.	2dd\	mi-
.	.	.	.	.	.	.	.	.	.	.	.	4ff\	-hi
.	.	.	.	.	.	.	.	.	.	.	.	4ff\	ma-
.	.	.	.	.	.	.	.	.	.	.	.	2cc\	-gna
.	.	.	.	.	.	.	.	.	.	.	.	2b-\	qui
=31-	=31-	=31-	=31-	=31-	=31-	=31-	=31-	=31-	=31-	=31-	=31-	=31-	=31-
1r	.	1r	.	1r	.	.	.	.	.	.	.	2a/	po-
.	.	.	.	.	.	.	.	.	.	.	.	2b-/	-tens
2r	.	2r	.	2r	.	.	.	.	.	.	.	1g	eſt
*	*ij	*	*	*	*	*	*	*	*	*	*	*	*
2g\	mi-	2b-\	mi-	2dd\	mi-	.	.	.	.	.	.	.	.
=32-	=32-	=32-	=32-	=32-	=32-	=32-	=32-	=32-	=32-	=32-	=32-	=32-	=32-
4d\	-hi	4a\	-hi	4ff\	-hi	1r	.	1r	.	1r	.	00r	.
4d\	ma-	4a\	ma-	4ff\	ma-	.	.	.	.	.	.	.	.
4f\	-gna	4a\	-gna	2ccny\	-gna	.	.	.	.	.	.	.	.
*	*Xij	*	*	*	*	*	*	*	*	*	*	*	*
4c/	mi-	4cc\	mi-	.	.	.	.	.	.	.	.	.	.
!	!	!LO:SIC:v:t=custos g	!	!	!	!	!	!	!	!LO:SIC:v:t=custos b-	!	!	!
!	!	!LO:LB:g=original	!	!	!	!	!	!	!	!LO:LB:g=original	!	!	!
4g\	-hi	4g/	-hi	2b-/	qui	2G/	mi-	2b-\	mi-	2b-\	mi-	.	.
4g\	ma-	4g/	ma-	.	.	.	.	.	.	.	.	.	.
2d\	-gna	2f#X/	-gna	4.a/	po-	4d\	-hi	4dd\	-hi	4dd\	-hi	.	.
.	.	.	.	.	.	4d\	ma-	4dd\	ma-	4dd\	ma-	.	.
.	.	.	.	8b-/	-tens	.	.	.	.	.	.	.	.
!	!	!	!	!LO:SIC:v:t=custos cc	!	!	!	!	!	!	!	!	!
!	!	!	!	!LO:LB:g=original	!	!	!	!	!	!	!	!	!
=33-	=33-	=33-	=33-	=33-	=33-	=33-	=33-	=33-	=33-	=33-	=33-	=33-	=33-
4r	.	4r	.	4cc\	est	4A/	-gna	4ccny\	-gna	4ccny\	-gna	.	.
4f\	qui	4fny/	qui	4cc\	qui	8A/L	qui	4cc\	qui	4cc\	qui	.	.
.	.	.	.	.	.	8B-/J	.	.	.	.	.	.	.
4c/	po-	4f/	po-	4g/	Po-	4c/	Po-	4cc\	po-	4cc\	Po-	.	.
4c/	-tens	4e/	-tens	4g/	-tens	4c/	-tens	4cc\	-tens	4cc\	-te(n)s	.	.
1F	eſt	1f	est	1a	est	1f	eſt	1a	eſt	1a	eſt	.	.
=34-	=34-	=34-	=34-	=34-	=34-	=34-	=34-	=34-	=34-	=34-	=34-	=34-	=34-
1r	.	1r	.	1r	.	4.c/	et	4.e/	et	4.e/	et	2cc\	et
.	.	.	.	.	.	8d\	.	8f/	.	8f/	.	.	.
!	!	!	!	!	!	!LO:SIC:v:t=custos e	!	!	!	!	!	!	!
!	!	!	!	!	!	!LO:LB:g=original	!	!	!	!	!	!	!
.	.	.	.	.	.	4e\	ſan-	4g/	ſan-	4g/	ſan-	4cc\	ſa(n)-
.	.	.	.	.	.	4f\	-ctum	4a\	-ctum	4a\	-ctu(m)	4cc\	-ctu(m)
2c/	et	2g/	et	2cc\	et	2c/	no-	2e/	no-	2e/	no-	2g/	no-
!LO:SIC:v:t=custos f	!	!	!	!	!	!	!	!	!	!	!	!	!
!LO:LB:g=original	!	!	!	!	!	!	!	!	!	!	!	!	!
4f\	ſan-	4a\	ſan-	4cc\	ſan-	2F/	-men	2f/	-men	2f/	-men	2f/	-me(n)
4f\	-ctu(m)	4a\	-ctu(m)	4cc\	-ctu(m)	.	.	.	.	.	.	.	.
=35-	=35-	=35-	=35-	=35-	=35-	=35-	=35-	=35-	=35-	=35-	=35-	=35-	=35-
2c/	no-	2e/	no-	2g/	no-	2c/	et	2g\	et	2g\	et	4r	.
.	.	.	.	.	.	.	.	.	.	.	.	4cc\	et
2F/	-men	2f/	-men	2f/	-men	4f\	ſan-	4a\	ſan-	4a\	ſan-	4cc\	ſan-
!	!	!	!	!	!	!	!	!LO:SIC:v:t=custos a	!	!	!	!	!
!	!	!	!	!	!	!	!	!LO:LB:g=original	!	!	!	!	!
.	.	.	.	.	.	4f\	-ctum	4a\	-ctum	4a\	-ctu(m)	4cc\	-ctum
4r	.	4r	.	4r	.	2c/	.	2e/	no-	2e/	no-	2g/	no-
*	*ij	*	*ij	*	*ij	*	*	*	*	*	*	*	*
4c/	et	4g/	et	4cc\	et	.	.	.	.	.	.	.	.
4f\	ſan-	4a\	ſan-	4cc\	ſan-	2F/	-men	2f/	-men	2f/	-men	2f/	-men
4f\	-ctu(m)	4a\	-ctu(m)	4cc\	-ctu(m)	.	.	.	.	.	.	.	.
=36-	=36-	=36-	=36-	=36-	=36-	=36-	=36-	=36-	=36-	=36-	=36-	=36-	=36-
!	!	!	!	!	!	!	!	!LO:TX:t=P:problem=niewyraźne źródło	!	!	!	!	!
2c/	no-	2e/	no-	2g/	no-	1r	.	1r	.	1r	.	1r	.
2F/	-men	2f/	-men	2f/	-men	.	.	.	.	.	.	.	.
*	*Xij	*	*Xij	*	*Xij	*	*	*	*	*	*	*	*
!	!	!	!	!	!	!	!	!	!	!	!	!LO:SIC:v:t=custos b-	!
!	!	!	!	!	!	!	!	!	!	!	!	!LO:LB:g=original	!
1r	.	1r	.	1r	.	4B-/	no-	4f/	no-	4f/	no-	4b-\	no-
.	.	.	.	.	.	4G/	-men	2b-\	-men	2b-\	-men	4b-\	-men
.	.	.	.	.	.	2F/	e-	.	.	.	.	2cc\	e-
.	.	.	.	.	.	.	.	4a\	e-	4a\	e-	.	.
=37-	=37-	=37-	=37-	=37-	=37-	=37-	=37-	=37-	=37-	=37-	=37-	=37-	=37-
4B-/	no-	4f/	no-	4b-\	no-	2B-/	-ius	2b-\	-ius	2b-\	-ius	2dd\	-ius
4G/	-men	2b-\	-men	4b-\	-men	.	.	.	.	.	.	.	.
2F/	e-	.	.	2cc\	e-	2r	.	2r	.	2r	.	2r	.
.	.	4a\	e-	.	.	.	.	.	.	.	.	.	.
*	*	*	*	*	*	*	*ij	*	*	*	*ij	*	*
2B-/	-ius	2b-\	-ius	2dd\	-ius	4B-/	no-	4f/	no-	4f/	no-	4b-\	no-
.	.	.	.	.	.	4G/	-men	2b-\	-men	2b-\	-men	4b-\	-men
2r	.	2r	.	2r	.	2F/	e-	.	.	.	.	2cc\	e-
.	.	.	.	.	.	.	.	4a\	e-	4a\	e-	.	.
=38-	=38-	=38-	=38-	=38-	=38-	=38-	=38-	=38-	=38-	=38-	=38-	=38-	=38-
*	*ij	*	*ij	*	*ij	*	*	*	*	*	*	*	*
4B-/	no-	4f/	no-	4b-\	no-	2B-/	-ius	2b-\	-ius	2b-\	-ius	1dd	-ius
*	*	*	*	*	*	*	*Xij	*	*	*	*Xij	*	*
4G/	-men	2b-\	-men	4b-\	-men	.	.	.	.	.	.	.	.
2F/	e-	.	.	2cc\	e-	2r	.	2r	.	2r	.	.	.
.	.	4a\	e-	.	.	.	.	.	.	.	.	.	.
!	!	!	!	!	!	!	!	!	!	!LO:SIC:v:t=custos b-	!	!	!
!	!	!	!	!	!	!	!	!	!	!LO:PB:g=original	!	!	!
1B-	-ius	1b-	-ius	1dd	-ius	2B-/	et	2b-\	et	2b-\	et	2dd\	et
*	*Xij	*	*Xij	*	*Xij	*	*	*	*	*	*	*	*
.	.	.	.	.	.	4B-/	ſan-	4b-\	san-	4b-\	san-	4dd\	ſan-
.	.	.	.	.	.	4B-/	-ctu(m)	4b-\	-ctum	4b-\	-ctum	4dd\	-ctu(m)
=39-	=39-	=39-	=39-	=39-	=39-	=39-	=39-	=39-	=39-	=39-	=39-	=39-	=39-
0r	.	0r	.	0r	.	2F/	no-	2a\	no-	2a\	no-	2cc\	no-
.	.	.	.	.	.	2G/	-me(n)	2g/	-men	2g/	-me(n)	2b-/	-(m)en
.	.	.	.	.	.	2d\	e-	2f/	e-	2f/	e-	2.a/	e-
.	.	.	.	.	.	4d\	-ius	4f/	-ius	4f/	-ius	.	.
*	*	*	*	*	*	*	*ij	*	*	*	*	*	*
.	.	.	.	.	.	4G/	et	4d/	et	4d/	et	4b-/	-ius
=40-	=40-	=40-	=40-	=40-	=40-	=40-	=40-	=40-	=40-	=40-	=40-	=40-	=40-
1r	.	1r	.	1r	.	4.c/	ſan-	4.e/	ſan-	4.e/	san-	2g/	no-
!	!	!	!	!	!	!	!	!LO:SIC:v:l:t=custos słowny no	!	!	!	!	!
.	.	.	.	.	.	8B-/	-ctu(m)	8f/	-ctu(m)	8f/	-ctu(m)	.	.
!	!	!	!	!	!	!	!	!LO:SIC:v:t=custos g	!	!	!	!	!
!	!	!	!	!	!	!	!	!LO:PB:g=original	!	!	!	!	!
.	.	.	.	.	.	4A/	no-	4g/	no-	4g/	no-	4.cc\	-me(n)
.	.	.	.	.	.	4G/	-me(n)	4g/	-men	4g/	-men	.	.
.	.	.	.	.	.	.	.	.	.	.	.	8b-/	.
2r	.	2r	.	2r	.	2d\	e-	2f#X/	e-	2f#X/	e-	2a/	e-
!	!	!LO:SIC:v:t=custos g	!	!	!	!	!	!	!	!	!	!	!
!	!	!LO:LB:g=original	!	!	!	!	!	!	!	!	!	!	!
!	!	!	!	!	!	!	!	!	!	!	!	!LO:TX:t=P:problem=# below	!
!	!	!	!	!	!	!	!	!	!	!	!	!LO:N:acc=#	!
2G/	et	2g/	et	2dd\	et	2G/	-ius	2g/	-ius	2g/	-ius	2bn/	-ius
*	*	*	*	*	*	*	*Xij	*	*	*	*	*	*
=41-	=41-	=41-	=41-	=41-	=41-	=41-	=41-	=41-	=41-	=41-	=41-	=41-	=41-
2A/	ſan-	2c/	ſan-	2cc\	san-	1r	.	2r	.	2r	.	2r	.
2B-/	-ctu(m)	2d/	-ctum	2b-\	-ctum	.	.	2b-\	et	2b-\	et	2ff\	no-
!	!	!	!	!LO:SIC:v:t=custos cc	!	!	!	!	!	!	!	!	!
!	!	!	!	!LO:LB:g=original	!	!	!	!	!	!	!	!	!
!	!	!LO:SIC:v:s:t=8e-	!	!	!	!	!	!	!	!	!	!	!
2c/	no-	8e/L	no-	2r	.	2r	.	4g/	ſan-	4g\	san-	1ee-X	-men
.	.	8f/J	.	.	.	.	.	.	.	.	.	.	.
.	.	4g/	.	.	.	.	.	4g/	-ctum	4g\	-ctu(m)	.	.
*	*	*	*	*	*	*2\right	*	*	*	*	*	*	*
!	!	!LO:SIC:v:s:t=4e-	!	!	!	!	!	!	!	!	!	!	!
2c/	-men	4e/	.	2cc\	no-	2g\	no-	1cc\	no-	1cc\	no-	.	.
!	!	!LO:TX:t=P:problem=potrzebna pauza, żeby się zgadzało	!	!	!	!	!	!	!	!	!	!	!
.	.	4ryy	.	.	.	.	.	.	.	.	.	.	.
*	*	*	*	*	*	*2\left	*	*	*	*	*	*	*
=42-	=42-	=42-	=42-	=42-	=42-	=42-	=42-	=42-	=42-	=42-	=42-	=42-	=42-
0d	e-	2f#X/	.	2g/	-men	1d	-men	.	.	.	.	0dd	e-
.	.	1g	-men	2.dd\	e-	.	.	2b-\	-men	2b-\	-me(n)	.	.
.	.	.	.	.	.	1d	e-	1a	e-	1a	e-	.	.
.	.	.	.	8cc\L	.	.	.	.	.	.	.	.	.
.	.	.	.	8b-\J	.	.	.	.	.	.	.	.	.
.	.	2f#X/	e-	2a/	.	.	.	.	.	.	.	.	.
=43-	=43-	=43-	=43-	=43-	=43-	=43-	=43-	=43-	=43-	=43-	=43-	=43-	=43-
!	!	!	!	!LO:N:acc=#	!	!	!	!	!	!	!	!	!
0G;;	-ius	0g;;	-ius	0bn;;	-ius	0g;;	-ius	0g;;	-ius,	0g;;	-ius	0dd;;	-ius.
!LO:LB:g=original	!	!LO:PB:g=original	!	!LO:PB:g=original	!	!LO:LB:g=original	!	!	!	!LO:LB:g=original	!	!LO:PB:g=original	!
=44||-	=44||-	=44||-	=44||-	=44||-	=44||-	=44||-	=44||-	=44||-	=44||-	=44||-	=44||-	=44||-	=44||-
*M3/1	*	*M3/1	*	*M3/1	*	*M3/1	*	*M3/1	*	*M3/1	*	*M3/1	*
!	!	!LO:TX:t=P:problem=W źródle metrum 3/2	!	!LO:TX:t=P:problem=W źródle metrum 3/2	!	!LO:TX:t=P:problem=W źródle metrum 3/2	!	!LO:TX:t=P:problem=W źródle metrum 3/2	!	!LO:TX:t=P:problem=W źródle metrum 3/2	!	!LO:TX:t=P:problem=W źródle metrum 3/2	!
00.r	.	00.r	.	00.r	.	1G	Fe-	1b-	Fe-	1b-	Fe-	1dd	Fe-
.	.	.	.	.	.	1G	-cit	1b-	-cit	1b-	-cit	1dd	-cit
.	.	.	.	.	.	1G	Po-	1b-	po-	1b-	Po-	1gg	Po-
=45-	=45-	=45-	=45-	=45-	=45-	=45-	=45-	=45-	=45-	=45-	=45-	=45-	=45-
.	.	.	.	.	.	1.d	-ten-	1.a	-ten-	1.a	-ten-	1.ff	-ten-
.	.	.	.	.	.	2d\	-ti-	2a\	-ti-	2a\	-ti-	2ff\	-ti-
.	.	.	.	.	.	1A	-am	1cc	-am	1cc	-am	1eeny	-am
=46-	=46-	=46-	=46-	=46-	=46-	=46-	=46-	=46-	=46-	=46-	=46-	=46-	=46-
1G	Fe-	1b-	Fe-	1dd	Fe-	00.r	.	00.r	.	00.r	.	00.r	.
1G	-cit	1b-	-cit	1dd	-cit	.	.	.	.	.	.	.	.
1G	Po-	1b-	Po-	1gg	Po-	.	.	.	.	.	.	.	.
=47-	=47-	=47-	=47-	=47-	=47-	=47-	=47-	=47-	=47-	=47-	=47-	=47-	=47-
1.d	-ten-	1.a	-ten-	1.ff	-ten-	.	.	.	.	.	.	.	.
2d\	-ti-	2a\	-ti-	2ff\	-ti-	.	.	.	.	.	.	.	.
1A	-am	1cc	-am	1ee	-am	.	.	.	.	.	.	.	.
=48-	=48-	=48-	=48-	=48-	=48-	=48-	=48-	=48-	=48-	=48-	=48-	=48-	=48-
00.r	.	00.r	.	00.r	.	1r	.	1r	.	1r	.	2dd\	in
.	.	.	.	.	.	.	.	.	.	.	.	2cc\	.
.	.	.	.	.	.	1r	.	1r	.	1r	.	2b-y\	.
.	.	.	.	.	.	.	.	.	.	.	.	2a/	.
.	.	.	.	.	.	1d	in	1g	in	1g	in	2b-\	.
.	.	.	.	.	.	.	.	.	.	.	.	2cc\	.
!	!	!	!	!	!	!	!	!LO:SIC:v:t=custos f	!	!	!	!	!
!	!	!	!	!	!	!	!	!LO:LB:g=original	!	!	!	!	!
=49-	=49-	=49-	=49-	=49-	=49-	=49-	=49-	=49-	=49-	=49-	=49-	=49-	=49-
.	.	.	.	.	.	1.G	bra-	1.fny	bra-	1.fny	bra-	1.dd	bra-
.	.	.	.	.	.	2A/	-chi-	2f/	-chi-	2f/	-chi-	2dd\	-chi-
.	.	.	.	.	.	1B-	-o	1d	-o	1d	-o	1dd	-o
=50-	=50-	=50-	=50-	=50-	=50-	=50-	=50-	=50-	=50-	=50-	=50-	=50-	=50-
1r	.	1r	.	1r	.	0A	ſu-	0e	su-	0e	su-	0cc#X	ſu-
1r	.	1r	.	1r	.	.	.	.	.	.	.	.	.
1d	in	1a	in	1dd	in	1d	-o	1f#X	-o	1f#X	-o	1dd	-o
=51-	=51-	=51-	=51-	=51-	=51-	=51-	=51-	=51-	=51-	=51-	=51-	=51-	=51-
1.G	Bra-	1.g	Bra-	2b-y/	bra-	00.r	.	00.r	.	00.r	.	00.r	.
.	.	.	.	2a/	.	.	.	.	.	.	.	.	.
.	.	.	.	2b-/	-chi-	.	.	.	.	.	.	.	.
2A/	-chi-	2fny/	-chi-	2cc\	.	.	.	.	.	.	.	.	.
1B-	-o	1d	-o	1dd	-o	.	.	.	.	.	.	.	.
=52-	=52-	=52-	=52-	=52-	=52-	=52-	=52-	=52-	=52-	=52-	=52-	=52-	=52-
0A	ſu-	0e	ſu-	0cc#X	ſu-	.	.	.	.	.	.	.	.
1d	-o	1f#X	-o	1dd	-o	.	.	.	.	.	.	.	.
=53-	=53-	=53-	=53-	=53-	=53-	=53-	=53-	=53-	=53-	=53-	=53-	=53-	=53-
00.r	.	00.r	.	00.r	.	1d	dis-	1dd	dis-	1dd	dis-	1ff	dis-
.	.	.	.	.	.	1A	-per-	1cc	-per-	1cc	-per-	1ee	-per-
.	.	.	.	.	.	1B-	-sit	1b-	-sit	1b-	-sit	1dd,>	-ſit
=54-	=54-	=54-	=54-	=54-	=54-	=54-	=54-	=54-	=54-	=54-	=54-	=54-	=54-
.	.	.	.	.	.	1F	su-	1a	su-	1a	su-	1ccny	ſu-
.	.	.	.	.	.	1f	-per-	1a	-per-	1a	-per-	1cc	-per-
.	.	.	.	.	.	1f	-bos	1a	-bos	1a	-bos	1cc	-bos
!	!	!	!	!	!	!	!	!	!	!LO:SIC:v:t=custos b-	!	!	!
!	!	!	!	!	!	!	!	!	!	!LO:LB:g=original	!	!	!
=55-	=55-	=55-	=55-	=55-	=55-	=55-	=55-	=55-	=55-	=55-	=55-	=55-	=55-
!	!	!LO:SIC:v:t=custos dd	!	!	!	!	!	!	!	!	!	!	!
1d	dis-	1dd	diſ-	1ff	dis-	00.r	.	00.r	.	00.r	.	00.r	.
1A	-per-	1cc	-per-	1ee	-per-	.	.	.	.	.	.	.	.
1B-	-sit	1b-X	-ſit	1dd	-sit	.	.	.	.	.	.	.	.
=56-	=56-	=56-	=56-	=56-	=56-	=56-	=56-	=56-	=56-	=56-	=56-	=56-	=56-
1F	su-	1a	su-	1ccny	ſu-	.	.	.	.	.	.	.	.
1f	-per-	1a	-per-	1cc	-per-	.	.	.	.	.	.	.	.
1f	-bos	1a	-bos	1cc	-bos	.	.	.	.	.	.	.	.
!	!	!	!	!LO:SIC:v:t=custos dd	!	!	!	!	!	!	!	!	!
!	!	!	!	!LO:LB:g=original	!	!	!	!	!	!	!	!	!
=57-	=57-	=57-	=57-	=57-	=57-	=57-	=57-	=57-	=57-	=57-	=57-	=57-	=57-
00.r	.	00.r	.	00.r	.	1B-	men-	1b-	men-	1b-	men-	1dd	men-
.	.	.	.	.	.	1F	-te	1a	-te	1a	-te	1cc	-te
.	.	.	.	.	.	1G	Cor-	1g	cor-	1g	cor-	1b-	Cor-
!	!	!	!	!	!	!LO:SIC:v:t=custos d	!	!	!	!	!	!	!
!	!	!	!	!	!	!LO:PB:g=original	!	!	!	!	!	!	!
=58-	=58-	=58-	=58-	=58-	=58-	=58-	=58-	=58-	=58-	=58-	=58-	=58-	=58-
.	.	.	.	.	.	1d	-dis	1f#X	-dis	1f#X	-dis	1a	-dis
.	.	.	.	.	.	1d	ſu-	1f#	ſu-	1f#	su-	1a	ſu-
!	!	!	!	!	!	!	!	!	!	!	!	!LO:SIC:v:t=custos a	!
!	!	!	!	!	!	!	!	!	!	!	!	!LO:LB:g=original	!
.	.	.	.	.	.	1d	-i.	1f#	-i,	1f#	-i	1a	-i
!LO:SIC:v:t=custos B-	!	!LO:SIC:v:t=custos b-	!	!	!	!	!	!	!	!	!	!	!
!LO:PB:g=original	!	!LO:LB:g=original	!	!	!	!	!	!	!	!	!	!	!
=59-	=59-	=59-	=59-	=59-	=59-	=59-	=59-	=59-	=59-	=59-	=59-	=59-	=59-
1B-	men-	1b-	men-	1dd	men-	00.r	.	00.r	.	00.r	.	00.r	.
1F	-te	1a	-te	1cc	-te	.	.	.	.	.	.	.	.
1G	cor-	1g	Cor-	1b-	cor-	.	.	.	.	.	.	.	.
=60-	=60-	=60-	=60-	=60-	=60-	=60-	=60-	=60-	=60-	=60-	=60-	=60-	=60-
1d	-dis	1f#X	-dis	1a	-dis	.	.	.	.	.	.	.	.
1d	su-	1f#	ſu-	1a	ſu-	.	.	.	.	.	.	.	.
1d	-i	1f#	-i	1a	-i	.	.	.	.	.	.	.	.
=61-	=61-	=61-	=61-	=61-	=61-	=61-	=61-	=61-	=61-	=61-	=61-	=61-	=61-
1%3r	.	1%3r	.	1%3r	.	1g	cor-	1g	cor-	1g	cor-	1g	Cor-
.	.	.	.	.	.	1c	-dis	1e	-dis	1e	-dis	1cc	-dis
!	!	!	!	!	!	!	!	!LO:SIC:v:t=custos f#	!	!	!	!	!
!	!	!	!	!	!	!	!	!LO:LB:g=original	!	!	!	!	!
.	.	.	.	.	.	1d	ſu-	1f#X	su-	1f#X	ſu-	1a	ſu-
=62-	=62-	=62-	=62-	=62-	=62-	=62-	=62-	=62-	=62-	=62-	=62-	=62-	=62-
1g	cor-	1g	Cor-	1g	cor-	1G	-i.	0.g	-i	0.g	-i.	0.g	-i
1c	-dis	1e	-dis	1cc	-dis	1r	.	.	.	.	.	.	.
1d	su-	1f#X	ſu-	1a	ſu-	1r	.	.	.	.	.	.	.
=63-	=63-	=63-	=63-	=63-	=63-	=63-	=63-	=63-	=63-	=63-	=63-	=63-	=63-
*	*	*	*	*	*	*	*	*	*	*	*ij	*	*
1G	-i.	0.g	-i	0.g	-i	1G	cor-	1b-	cor-	1b-	cor-	1dd	Cor-
1r	.	.	.	.	.	1c	-dis	1cc	-dis	1cc	-dis	1ee	-dis
1r	.	.	.	.	.	1d	ſu-	1a	su-	1a	ſu-	1ff#X	ſu-
=64-	=64-	=64-	=64-	=64-	=64-	=64-	=64-	=64-	=64-	=64-	=64-	=64-	=64-
*	*	*	*	*	*ij	*	*	*	*	*	*	*	*
!	!	!LO:SIC:v:s:t=1bn	!	!	!	!	!	!LO:N:acc=#	!	!LO:N:acc=#	!	!	!
1gyy	cor-	1b-	Cor-	1dd	cor-	1G	-i.	1bn	-i	1bn	-i.	0.gg	-i
*	*	*	*	*	*	*	*	*	*	*	*Xij	*	*
1c	-dis	1cc	-dis	1ee	-dis	1r	.	1r	.	1r	.	.	.
1d	su-	1a	ſu-	1ff#X	ſu-	1r	.	1r	.	1r	.	.	.
=65-	=65-	=65-	=65-	=65-	=65-	=65-	=65-	=65-	=65-	=65-	=65-	=65-	=65-
0.G	-i.	0b-	-i	0gg	-i	0B-	men-	0dd	men-	0dd	men-	0dd	men-
*	*	*	*	*	*Xij	*	*	*	*	*	*	*	*
.	.	1g	men-	1ee	men-	1c	-te	1cc	-te	1cc	-te	1ee	-te
=66-	=66-	=66-	=66-	=66-	=66-	=66-	=66-	=66-	=66-	=66-	=66-	=66-	=66-
1d	men-	0a	-te	0dd	-te	0d	cor-	0a	cor-	0a	cor-	0ff#X	Cor-
1d	-te	.	.	.	.	.	.	.	.	.	.	.	.
1g	cor-	1g	Cor-	1b-	cor-	1G	-dis	1b-y	-dis	1b-y	-dis	1gg	-dis
=67-	=67-	=67-	=67-	=67-	=67-	=67-	=67-	=67-	=67-	=67-	=67-	=67-	=67-
1d	-dis	1a	-dis	1dd	-dis	0.d	ſu-	0.a	su-	0.a	ſu-	0.ff#X	ſu-
0d	su-	0a	ſu-	0dd	ſu-	.	.	.	.	.	.	.	.
=68-	=68-	=68-	=68-	=68-	=68-	=68-	=68-	=68-	=68-	=68-	=68-	=68-	=68-
!	!	!	!	!	!	!	!	!LO:N:acc=#	!	!LO:N:acc=#	!	!	!
!LO:N:vis=0	!	!LO:N:vis=0	!	!LO:N:vis=0	!	!LO:N:vis=0	!	!LO:N:vis=0	!	!LO:N:vis=0	!	!LO:N:vis=0	!
0.g;;	-i.	0.g;;	-i.	0.dd;	-i.	0.G;;	-i.	0.bn;;	-i	0.bn;;	-i.	0.gg;;	-i
!LO:LB:g=original	!	!LO:LB:g=original	!	!LO:LB:g=original	!	!LO:LB:g=original	!	!	!	!LO:LB:g=original	!	!LO:LB:g=original	!
=69||-	=69||-	=69||-	=69||-	=69||-	=69||-	=69||-	=69||-	=69||-	=69||-	=69||-	=69||-	=69||-	=69||-
*M2/1	*	*M2/1	*	*M2/1	*	*M2/1	*	*M2/1	*	*M2/1	*	*M2/1	*
*met(C|)	*	*met(C|)	*	*met(C|)	*	*met(C|)	*	*met(C|)	*	*met(C|)	*	*met(C|)	*
1r	.	1r	.	1r	.	1r	.	1r	.	1r	.	2gg\	E-
.	.	.	.	.	.	.	.	.	.	.	.	4ff#X\	-ſu-
.	.	.	.	.	.	.	.	.	.	.	.	4ff#\	-ri-
2g\	E-	2b-\	E-	2gg\	E-	2G/	E-	2g/	E-	2g/	E-	2gg\	-en-
!	!	!	!	!LO:TX:t=P:problem=# below	!	!	!	!	!	!	!	!	!
4d\	-su-	4a\	-ſu-	4ff#X\	-ſu-	4d\	-ſu-	4a\	-su-	4a\	-su-	2dd\	-tes
4d\	-ri-	4a\	-ri-	4ff#\	-ri-	4d\	-ri-	4a\	-ri-	4a\	-ri-	.	.
=70-	=70-	=70-	=70-	=70-	=70-	=70-	=70-	=70-	=70-	=70-	=70-	=70-	=70-
2d\	-en-	2g/	-en-	2gg\	-en-	2G/	-en-	2b-y\	-en-	2b-y\	-en-	1r	.
!	!	!	!	!	!	!	!	!LO:SIC:v:t=custos a	!	!	!	!	!
!	!	!	!	!	!	!	!	!LO:LB:g=original	!	!	!	!	!
2d\	-tes	2f#X/	-tes	2dd\	-tes	2d\	-tes	2a\	-tes	2a\	-tes	.	.
1r	.	1r	.	1r	.	1r	.	1r	.	1r	.	2gg\	im-
.	.	.	.	.	.	.	.	.	.	.	.	4ff#X\	-ple-
.	.	.	.	.	.	.	.	.	.	.	.	4ff#\	-vit
=71-	=71-	=71-	=71-	=71-	=71-	=71-	=71-	=71-	=71-	=71-	=71-	=71-	=71-
2G/	im-	2g/	im-	2gg\	im-	2g\	im-	2b-\	im-	2b-\	im-	2gg\	bo-
4d\	-ple-	4a\	-ple-	4ff#X\	-ple-	4d\	-ple-	4a\	-ple-	4a\	-ple-	2dd\	-nis
4d\	-vit	4a\	-vit	4ff#\	-vit	4d\	-vit	4a\	-vit	4a\	-vit	.	.
2G/	bo-	2b-\	bo-	2gg\	bo-	2d\	bo-	2g/	bo-	2g/	bo-	1r	.
2d\	-nis	2a\	-nis	2dd\	-nis	2d\	-nis	2f#X/	-nis	2f#X/	-nis	.	.
=72-	=72-	=72-	=72-	=72-	=72-	=72-	=72-	=72-	=72-	=72-	=72-	=72-	=72-
0r	.	0r	.	0r	.	0r	.	0r	.	0r	.	4cc\	et
.	.	.	.	.	.	.	.	.	.	.	.	4dd\	di-
.	.	.	.	.	.	.	.	.	.	.	.	4cc\	-vi-
.	.	.	.	.	.	.	.	.	.	.	.	4b-\	-tes
.	.	.	.	.	.	.	.	.	.	.	.	4a/	di-
.	.	.	.	.	.	.	.	.	.	.	.	4a/	-mi-
.	.	.	.	.	.	.	.	.	.	.	.	2g/	-ſit
=73-	=73-	=73-	=73-	=73-	=73-	=73-	=73-	=73-	=73-	=73-	=73-	=73-	=73-
4f\	et	4a\	et	4cc\	et	4F/	et	4cc\	et	4cc\	et	0r	.
4B-/	di-	4b-\	di-	4dd\	di-	4B-/	di-	4b-\	di-	4b-\	di-	.	.
4f\	-vi-	4a\	-vi-	4cc\	-vi-	4F/	-vi-	4cc\	-vi-	4cc\	-vi-	.	.
4d\	-tes	4g\	-tes	4b-\	-tes	4G/	-tes	4g/	-tes	4g/	-tes	.	.
4d\	di-	4f#X/	di-	4a/	di-	4d\	di-	4a\	di-	4a\	di-	.	.
4d\	-mi-	4f#/	-mi-	4a/	-mi-	4d\	-mi-	4a\	-mi-	4a\	-mi-	.	.
!	!	!	!	!	!	!	!	!LO:N:acc=#	!	!LO:N:acc=#	!	!	!
2d\	-ſit	2g/	-ſit	2g/	-ſit	2G/	-ſit	2bn\	-sit	2bn\	-ſit	.	.
=74-	=74-	=74-	=74-	=74-	=74-	=74-	=74-	=74-	=74-	=74-	=74-	=74-	=74-
0r	.	0r	.	0r	.	0r	.	0r	.	0r	.	8g/L	i-
.	.	.	.	.	.	.	.	.	.	.	.	8a/	.
.	.	.	.	.	.	.	.	.	.	.	.	8b-/	.
.	.	.	.	.	.	.	.	.	.	.	.	8cc/J	.
.	.	.	.	.	.	.	.	.	.	.	.	4.dd\	.
.	.	.	.	.	.	.	.	.	.	.	.	8ee\	.
.	.	.	.	.	.	.	.	.	.	.	.	2ffny\	-na-
.	.	.	.	.	.	.	.	.	.	.	.	2dd\	-nes
=75-	=75-	=75-	=75-	=75-	=75-	=75-	=75-	=75-	=75-	=75-	=75-	=75-	=75-
1r	.	4.dd\	di-	8g/L	i-	4.G/	di-	4.b-y\	di-	4.b-\	di-	0r	.
.	.	.	.	8a/	.	.	.	.	.	.	.	.	.
.	.	.	.	8b-/	.	.	.	.	.	.	.	.	.
.	.	8cc\	-mi-	8cc/J	.	8A/	-mi-	8a\	-mi-	8a\	-mi-	.	.
.	.	4b-\	-sit	4.dd\	.	4B-/	-ſit	4g/	-sit	4g/	-ſit	.	.
!	!	!	!	!	!	!	!	!	!	!LO:SIC:v:t=custos b-	!	!	!
!	!	!	!	!	!	!	!	!	!	!LO:LB:g=original	!	!	!
.	.	2b-\	i-	.	.	4G/	i-	4b-\	i-	4b-\	i-	.	.
.	.	.	.	8ee\	.	.	.	.	.	.	.	.	.
2r	.	.	.	2ffny\	-na-	2F/	-na-	2cc\	-na-	2cc\	-na-	.	.
.	.	4a\	-na-	.	.	.	.	.	.	.	.	.	.
!	!	!LO:SIC:v:t=custos b-	!	!LO:SIC:v:t=custos dd	!	!LO:SIC:v:t=custos B-	!	!	!	!	!	!	!
!	!	!LO:LB:g=original	!	!LO:LB:g=original	!	!LO:LB:g=original	!	!	!	!	!	!	!
4r	.	4b-\	-nes	4dd\	-nes	4B-/	-nes	4dd\	-nes	4dd\	-nes	.	.
4G/	i-	4b-\	i-	4dd\	i-	4B-/	i-	4d/	i-	4d/	i-	.	.
=76-	=76-	=76-	=76-	=76-	=76-	=76-	=76-	=76-	=76-	=76-	=76-	=76-	=76-
2F/	-na-	2cc\	-na-	2cc\	-na-	2f\	-na-	2fny/	-na-	2fny/	-na-	1r	.
!	!	!	!	!	!	!	!	!LO:SIC:v:t=custos f	!	!	!	!	!
!	!	!	!	!	!	!	!	!LO:LB:g=original	!	!	!	!	!
2G/	-nes	2dd\	-nes	2b-\	-nes	2B-/	-nes	2f/	-nes	2f/	-nes	.	.
0r	.	0r	.	0r	.	4F/	di-	4a\	di-	4a\	di-	4cc\	di-
.	.	.	.	.	.	4B-/	-mi-	4b-\	-mi-	4b-\	-mi-	4dd\	-mi-
.	.	.	.	.	.	4F/	-sit	4a\	-sit	4a\	-sit	4cc\	-ſit
!	!	!	!	!	!	!	!	!	!	!	!	!LO:SIC:v:t=custos b-	!
!	!	!	!	!	!	!	!	!	!	!	!	!LO:LB:g=original	!
.	.	.	.	.	.	4G/	i-	4g/	i-	4g/	i-	4b-/	i-
=77-	=77-	=77-	=77-	=77-	=77-	=77-	=77-	=77-	=77-	=77-	=77-	=77-	=77-
.	.	.	.	.	.	2d\	-na-	2f#X/	-na-	2f#X/	-na-	2a/	-na-
.	.	.	.	.	.	2G/	-nes	2g/	-nes	2g/	-nes	2g/	-nes
!LO:SIC:v:t=custos f	!	!	!	!	!	!	!	!	!	!	!	!	!
!LO:LB:g=original	!	!	!	!	!	!	!	!	!	!	!	!	!
4f\	di-	4a\	di-	4cc\	di-	0r	.	0r	.	0r	.	1r	.
4d\	-mi-	4b-\	-mi-	4dd\	-mi-	.	.	.	.	.	.	.	.
4e-X\	-sit	4g/	-sit	4b-\	-sit	.	.	.	.	.	.	.	.
4c\	in-	2g/	i-	4cc\	i-	.	.	.	.	.	.	.	.
=78-	=78-	=78-	=78-	=78-	=78-	=78-	=78-	=78-	=78-	=78-	=78-	=78-	=78-
2d\	-a-	.	.	2a/	-na-	.	.	.	.	.	.	2r	.
.	.	4f#X/	-na-	.	.	.	.	.	.	.	.	.	.
*	*	*	*	*	*	*	*	*	*	*	*ij	*	*ij
4G/	-nes	2g/	-nes	2g/	-nes	.	.	.	.	.	.	4.gg\	di-
4G/	di-	.	.	.	.	.	.	.	.	.	.	.	.
.	.	.	.	.	.	.	.	.	.	.	.	8ff\	-mi-
*	*	*	*ij	*	*ij	*	*	*	*	*	*	*	*
2c/	-mi-	4g/	di-	4g/	di-	4g\	di-	4cc\	di-	4cc\	di-	2.ee-X\	-ſit
.	.	4g/	-mi-	4g/	-mi-	4g\	-mi-	4cc\	-mi-	4cc\	-mi-	.	.
4c/	-ſit	4g/	-sit	4g/	-sit	4c/	-ſit	4g/	-sit	4g/	-sit	.	.
4B-/	i-	4g/	i-	4dd\	i-	4g\	i-	4g/	i-	4g/	i-	4dd\	i-
=79-	=79-	=79-	=79-	=79-	=79-	=79-	=79-	=79-	=79-	=79-	=79-	=79-	=79-
1d	-na-	1a	-na-	4dd\	-na-	1d	-na-	4f#X/	-na-	4f#X/	-na-	1dd	-na-
.	.	.	.	8cc\L	.	.	.	2g/	.	2g/	.	.	.
.	.	.	.	8b-\J	.	.	.	.	.	.	.	.	.
.	.	.	.	2a/	.	.	.	.	.	.	.	.	.
!	!	!	!	!	!	!	!	!LO:TX:t=P:problem=# below	!	!LO:TX:t=P:problem=# below	!	!	!
.	.	.	.	.	.	.	.	4f#X/	.	4f#X/	.	.	.
!	!	!	!	!LO:N:acc=#	!	!	!	!	!	!	!	!	!
!	!	!	!	!LO:TX:t=P:problem=# above	!	!	!	!	!	!	!	!LO:TX:t=P:problem=niewyraźne źródło	!
0G;;	-nes.	0g;;	-nes	0bn;;	-nes	0g;;	-nes	0g;;	-nes;	0g;;	-nes	0dd;	-nes
!LO:LB:g=original	!	!LO:LB:g=original	!	!LO:LB:g=original	!	!LO:LB:g=original	!	!	!	!LO:LB:g=original	!	!	!
*	*	*	*Xij	*	*Xij	*	*	*	*	*	*Xij	*	*Xij
=80||-	=80||-	=80||-	=80||-	=80||-	=80||-	=80||-	=80||-	=80||-	=80||-	=80||-	=80||-	=80||-	=80||-
1r	.	2f#X/	Si-	1r	.	2d\	Si-	2a\	Si-	2a\	Si-	0dd	Si-
.	.	4g/	-cut	.	.	4B-/	-cut	4b-\	-cut	4b-\	-cut	.	.
.	.	4g/	lo-	.	.	4G/	lo-	4b-\	lo-	4b-\	lo-	.	.
2d\	Si-	4f#X/	-cu-	2a/	Si-	4d\	-cu-	4a\	-cu-	4a\	-cu-	.	.
.	.	4f#/	-tus	.	.	4d\	-tus	4a\	-tus	4a\	-tus	.	.
!	!	!	!	!	!	!	!	!LO:SIC:v:t=custos g	!	!	!	!	!
!	!	!	!	!	!	!	!	!LO:LB:g=original	!	!	!	!	!
4B-/	-cut	4g/	eſt	4b-y/	-cut	4G/	est	4g/	eſt	4g/	eſt	.	.
*	*	*	*	*	*	*	*	*	*	*	*ij	*	*
4G/	lo-	4b-\	lo-	4dd\	lo-	4g\	lo-	4g/	lo-	4g/	lo-	.	.
=81-	=81-	=81-	=81-	=81-	=81-	=81-	=81-	=81-	=81-	=81-	=81-	=81-	=81-
4d\	-cu-	4a\	-cu-	4dd\	-cu-	4d\	-cu-	4f#X/	-cu-	4f#X/	-cu-	1dd	-cut
!	!	!	!	!	!	!	!	!	!	!LO:TX:t=P:problem=# below	!	!	!
4d\	-tus	4a\	-tus	4a/	-tus	4d\	-tus	4f#/	-tus	4f#X/	-tus	.	.
!	!	!	!	!LO:N:acc=#	!	!	!	!	!	!	!	!	!
2G/	est	2g/	est	2bn/	est	2g\	est	2g/	eſt	2g/	eſt	.	.
*	*ij	*	*	*	*	*	*	*	*	*	*Xij	*	*
4r	.	4r	.	4r	.	4r	.	4r	.	4r	.	4r	.
4d\	Si-	4fny/	ſi-	4dd\	ſi-	4d\	si-	4a\	si-	4a\	si-	4ff\	Si-
4A/	-cut	4a\	-cut	4cc#X\	-cut	4e\	-cut	4a\	-cut	4a\	-cut	4eeny\	-cut
!	!	!	!	!	!	!LO:SIC:v:s:t=4c#	!	!LO:SIC:v:s:t=4cc#	!	!LO:SIC:v:s:t=4cc#	!	!	!
4A/	lo-	4a\	lo-	4cc#\	lo-	4c/	lo-	4cc\	lo-	4cc\	lo-	4ee\	lo-
=82-	=82-	=82-	=82-	=82-	=82-	=82-	=82-	=82-	=82-	=82-	=82-	=82-	=82-
!	!	!	!	!	!	!	!	!	!	!LO:TX:t=P:problem=niewyraźne źródło	!	!	!
4d\	-cu-	4a\	-cu-	4dd\	-cu-	4f\	-cu-	4a\	-cu-	4a\	-cu-	4ff\	-cu-
4d\	-tus	4a\	-tus	4dd\	-tus	4d\	-tus	4a\	-tus	4a\	-tus	4ff\	-tus
!	!	!	!	!LO:N:acc=#	!	!	!	!LO:SIC:v:s:t=2bn	!	!LO:SIC:v:s:t=2bn	!	!	!
2G/	est	2g/	est	2bn/	est	2g\	est	2b-\	eſt	2b-\	eſt	2gg\	est
*	*Xij	*	*	*	*	*	*	*	*	*	*	*	*
4r	.	4r	.	4r	.	4r	.	4r	.	4r	.	4r	.
4c/	ad	4cc\	ad	4g/	ad	4c/	ad	4g/	ad	4g/	ad	4ee\	ad
4A/	Pa-	4cc\	Pa-	4ccny\	Pa-	4c/	Pa-	4g/	pa-	4g/	Pa-	2ee\	Pa-
4c/	-tres	4a\	-tres	4cc\	-tres	4c/	-tres	4b-\	-tres	4cc\	-tres	.	.
=83-	=83-	=83-	=83-	=83-	=83-	=83-	=83-	=83-	=83-	=83-	=83-	=83-	=83-
2F/	no-	2f/	no-	2cc\	no-	2f\	no-	2a\	no-	2a\	no-	2ff\	-tres
2B-/	-stros	2f/	-ſtros	2dd\	-stros	4B-/	-ſtros	4fny,>/	-ſtros	4fny/	-ſtros	4r	.
*	*	*	*	*	*	*	*ij	*	*	*	*ij	*	*
.	.	.	.	.	.	4B-/	ad	4b-\	ad	4b-\	ad	4dd\	ad
1r	.	1r	.	1r	.	4c/	Pa-	4a\	pa-	4a\	Pa-	4cc\	Pa-
.	.	.	.	.	.	4c/	-tres	2g/	-tres	2g/	-tres	4b-/	-tres
.	.	.	.	.	.	2d\	no-	.	.	.	.	2a/	no-
!	!	!	!	!	!	!	!	!LO:TX:t=P:problem=niewyraźne źródło	!	!LO:TX:t=P:problem=# below	!	!	!
.	.	.	.	.	.	.	.	4f#y/	no-	4f#X/	no-	.	.
=84-	=84-	=84-	=84-	=84-	=84-	=84-	=84-	=84-	=84-	=84-	=84-	=84-	=84-
!	!	!	!	!	!	!	!	!LO:SIC:v:l:t=custos słowny abra	!	!	!	!	!
2r	.	2r	.	2r	.	1G	-ſtros	1g	-ſtros	1g	-ſtros	1g	-stros
*	*ij	*	*ij	*	*ij	*	*Xij	*	*	*	*Xij	*	*
2G/	ad	2b-\	ad	2dd\	ad	.	.	.	.	.	.	.	.
!	!	!	!	!	!	!	!	!	!	!LO:SIC:v:t=custos f#	!	!	!
!	!	!	!	!	!	!	!	!	!	!LO:PB:g=original	!	!	!
4A/	Pa-	4a\	Pa-	4cc\	Pa-	0r	.	0r	.	00r	.	0r	.
4B-/	-tres	2g/	-tres	4b-y\	-tres	.	.	.	.	.	.	.	.
(>4c/	no-	.	.	2a/	no-	.	.	.	.	.	.	.	.
4d/)	.	4f#X/	no-	.	.	.	.	.	.	.	.	.	.
=85-	=85-	=85-	=85-	=85-	=85-	=85-	=85-	=85-	=85-	=85-	=85-	=85-	=85-
1G	-stros	1g	-ſtros	1g	-stros	.	.	.	.	.	.	.	.
*	*Xij	*	*Xij	*	*Xij	*	*	*	*	*	*	*	*
=86-	=86-	=86-	=86-	=86-	=86-	=86-	=86-	=86-	=86-	=86-	=86-	=86-	=86-
!LO:TX:t=P:problem=brak pauzy	!	!LO:TX:t=P:problem=brak pauzy	!	!LO:TX:t=P:problem=brak pauzy	!	!LO:TX:t=P:problem=brak pauzy	!	!LO:TX:t=P:problem=brak pauzy	!	!	!	!LO:TX:t=P:problem=brak pauzy	!
0ryy	.	0ryy	.	0ryy	.	0ryy	.	0ryy	.	.	.	0ryy	.
!	!	!	!	!LO:SIC:v:t=custos a	!	!LO:SIC:v:t=custos d	!	!LO:SIC:v:t=custos f#	!	!	!	!	!
!	!	!	!	!LO:LB:g=original	!	!LO:LB:g=original	!	!LO:PB:g=original	!	!	!	!	!
=87-	=87-	=87-	=87-	=87-	=87-	=87-	=87-	=87-	=87-	=87-	=87-	=87-	=87-
*M3/1	*	*	*	*M3/1	*	*M3/1	*	*M3/1	*	*M3/1	*	*M3/1	*
!LO:TX:t=P:problem=w źródle metrum 3/2	!	!	!	!LO:TX:t=P:problem=w źródle metrum 3/2	!	!LO:TX:t=P:problem=w źródle metrum 3/2	!	!LO:TX:t=P:problem=w źródle metrum 3/2	!	!LO:TX:t=P:problem=w źródle metrum 3/2	!	!LO:TX:t=P:problem=w źródle metrum 3/2	!
00.r	.	00.r	.	00.r	.	1.d	A-	1.f#X	A-	1.f#X	A-	1.a	A-
.	.	.	.	.	.	2d\	-bra-	2f#/	-bra-	2f#/	-bra-	2a/	-bra-
.	.	.	.	.	.	1d	-ham	1f#	-ham	1f#	-ham	1a,>	-ham
=88-	=88-	=88-	=88-	=88-	=88-	=88-	=88-	=88-	=88-	=88-	=88-	=88-	=88-
*	*	*	*	*	*	*	*ij	*	*	*	*ij	*	*ij
.	.	.	.	.	.	1.g	A-	1.g	a-	1.g	A-	1.b-	A-
.	.	.	.	.	.	2g\	-bra-	2g/	-bra-	2g/	-bra-	2b-/	-bra-
.	.	.	.	.	.	1g	-ham	1b-	-ham	1b-	-ham	1b-,>	-ham
*	*	*	*	*	*	*	*Xij	*	*	*	*Xij	*	*Xij
=89-	=89-	=89-	=89-	=89-	=89-	=89-	=89-	=89-	=89-	=89-	=89-	=89-	=89-
*	*	*	*	*	*	*	*ij	*	*	*	*ij	*	*
0.r	.	0.r	.	0.r	.	1.f	A-	1.a	a-	1.a	A-	1.cc	A-
.	.	.	.	.	.	2f\	-bra-	2a\	-bra-	2a\	-bra-	2cc\	-bra-
!	!	!	!	!	!	!	!	!	!	!	!	!LO:SIC:v:t=custos cc	!
!	!	!	!	!	!	!	!	!	!	!	!	!LO:LB:g=original	!
.	.	.	.	.	.	1f	-han	1a	-ham	1a	-ham	1cc,>	-ham
!LO:SIC:v:t=custos d	!	!LO:SIC:v:t=custos f#	!	!	!	!	!	!	!	!	!	!	!
!LO:LB:g=original	!	!LO:LB:g=original	!	!	!	!	!	!	!	!	!	!	!
*	*	*	*	*	*	*	*Xij	*	*	*	*Xij	*	*
=90-	=90-	=90-	=90-	=90-	=90-	=90-	=90-	=90-	=90-	=90-	=90-	=90-	=90-
1.d	A-	1.f#X	A-	1.a	A-	1.d	A-	1.f#X	a-	1.f#X	A-	1.dd	A-
2d\	-bra-	2f#/	-bra-	2a/	-bra-	2d\	-bra-	2f#/	-bra-	2f#/	-bra-	2dd\	-bra-
1d	-ham	1f#	-ham	1a	-ham	1d	-ham	1d	-ham	1d	-ham	1dd	-ham
=91-	=91-	=91-	=91-	=91-	=91-	=91-	=91-	=91-	=91-	=91-	=91-	=91-	=91-
*	*ij	*	*ij	*	*ij	*	*	*	*	*	*	*	*
1.G	A-	1.g	A-	1.b-	A-	00.r	.	00.r	.	00.r	.	00.r	.
2G/	-bra-	2g/	-bra-	2b-/	-bra-	.	.	.	.	.	.	.	.
1G	-ham	1g	-ham	1b-	-ham	.	.	.	.	.	.	.	.
*	*Xij	*	*Xij	*	*Xij	*	*	*	*	*	*	*	*
=92-	=92-	=92-	=92-	=92-	=92-	=92-	=92-	=92-	=92-	=92-	=92-	=92-	=92-
*	*ij	*	*	*	*ij	*	*	*	*	*	*	*	*
1.F	A-	1.a	A-	1.cc	A-	.	.	.	.	.	.	.	.
2F/	-bra-	2a\	-bra-	2cc\	-bra-	.	.	.	.	.	.	.	.
1F	-ham	1a	-ham	1cc	-ham	.	.	.	.	.	.	.	.
*	*Xij	*	*	*	*Xij	*	*	*	*	*	*	*	*
=93-	=93-	=93-	=93-	=93-	=93-	=93-	=93-	=93-	=93-	=93-	=93-	=93-	=93-
*	*	*	*ij	*	*	*	*	*	*	*	*	*	*
1.B-	A-	1.b-	A-	1.dd	A-	1B-	et	1dd	et	1dd	et	1ff	et
.	.	.	.	.	.	1B-	se-	1dd	se-	1dd	ſe-	1ff	ſe-
2B-/	-bra-	2b-\	-bra-	2dd\	-bra-	.	.	.	.	.	.	.	.
1B-	-ham	1b-	-ham	1dd	-ham	1B-	-mi-	1dd	-mi-	1dd	-mi-	1ff	-mi-
*	*	*	*Xij	*	*	*	*	*	*	*	*	*	*
=94-	=94-	=94-	=94-	=94-	=94-	=94-	=94-	=94-	=94-	=94-	=94-	=94-	=94-
1B-	et	1dd	et	1ff	et	0.B-	-ni	0.b-	-ni	0.b-	-ni	0.dd	-ni
1d	se-	1b-	ſe-	1ff	ſe-	.	.	.	.	.	.	.	.
1B-	-mi-	1b-	-mi-	1ff	-mi-	.	.	.	.	.	.	.	.
=95-	=95-	=95-	=95-	=95-	=95-	=95-	=95-	=95-	=95-	=95-	=95-	=95-	=95-
0d	-ni	0b-	-ni	0dd	-ni	1B-	et	1dd	et	1dd	et	1ff	et
.	.	.	.	.	.	1B-	se-	1b-	se-	1b-	ſe-	1ff	ſe-
!	!	!	!	!	!	!	!	!LO:SIC:v:t=custos cc	!	!	!	!	!
!	!	!	!	!	!	!	!	!LO:LB:g=original	!	!	!	!	!
1f	e-	1a	e-	1cc	e-	1F	-mi-	1cc	-mi-	1cc	-mi-	1ff	-mi-
=96-	=96-	=96-	=96-	=96-	=96-	=96-	=96-	=96-	=96-	=96-	=96-	=96-	=96-
0.B-	-ius	0.b-	-ius	0.dd	-ius	0B-	-ni	0b-	-ni	0b-	-ni	0dd	-ni
.	.	.	.	.	.	1B-	e-	1b-	e-	1b-	e-	1dd	e-
=97-	=97-	=97-	=97-	=97-	=97-	=97-	=97-	=97-	=97-	=97-	=97-	=97-	=97-
00.r	.	00.r	.	00.r	.	0F	-ius	0a	-ius	0a	-ius	0cc	-ius
!	!	!	!	!	!	!	!	!	!	!LO:SIC:v:t=custos g	!	!	!
!	!	!	!	!	!	!	!	!	!	!LO:LB:g=original	!	!	!
.	.	.	.	.	.	1G	in	1g	in	1g	in	1b-	in
!	!	!	!	!	!	!LO:SIC:v:t=custos d	!	!	!	!	!	!	!
!	!	!	!	!	!	!LO:LB:g=original	!	!	!	!	!	!	!
=98-	=98-	=98-	=98-	=98-	=98-	=98-	=98-	=98-	=98-	=98-	=98-	=98-	=98-
.	.	.	.	.	.	0d	sae-	0f#X	se-	0f#X	ſae-	0a	ſae-
.	.	.	.	.	.	1d	-cu-	1f#	-cu-	1f#	-cu-	1a	-cu-
=99-	=99-	=99-	=99-	=99-	=99-	=99-	=99-	=99-	=99-	=99-	=99-	=99-	=99-
1r	.	1r	.	1r	.	0G	-la	0.g	-la	0.g	-la	0.g	-la
1r	.	1r	.	1r	.	.	.	.	.	.	.	.	.
1G	in	1g	in	1b-	in	1g	in	.	.	.	.	.	.
=100-	=100-	=100-	=100-	=100-	=100-	=100-	=100-	=100-	=100-	=100-	=100-	=100-	=100-
0d	ſae-	0f#X	ſae-	0dd	ſae-	0d	sae-	0.r	.	00.r	.	00.r	.
1d	-cu-	1f#	-cu-	1dd	-cu-	1d	-cu-	.	.	.	.	.	.
!	!	!	!	!LO:SIC:v:t=custos dd	!	!	!	!	!	!	!	!	!
!	!	!	!	!LO:PB:g=original	!	!	!	!	!	!	!	!	!
=101-	=101-	=101-	=101-	=101-	=101-	=101-	=101-	=101-	=101-	=101-	=101-	=101-	=101-
!	!	!	!	!	!	!	!	!LO:TX:t=P:problem=brak wpisanej pauzy	!	!	!	!	!
0.G	-la	0.g	-la	0.dd	-la	0.g	-la	0.ryy	.	.	.	.	.
=102-	=102-	=102-	=102-	=102-	=102-	=102-	=102-	=102-	=102-	=102-	=102-	=102-	=102-
00.r	.	00.r	.	00.r	.	1.d	A-	1.f#X	a-	1.f#X	A-	1.a	A-
.	.	.	.	.	.	2d\	-bra-	2f#/	-bra-	2f#/	-bra-	2a/	-bra-
.	.	.	.	.	.	1d	-ham	1f#	-ham	1f#	-ham	1a	-ham
=103-	=103-	=103-	=103-	=103-	=103-	=103-	=103-	=103-	=103-	=103-	=103-	=103-	=103-
*	*	*	*	*	*	*	*ij	*	*	*	*ij	*	*ij
.	.	.	.	.	.	1.g	A-	1.g	a-	1.g	A-	1.b-	A-
.	.	.	.	.	.	2g\	-bra-	2g/	-bra-	2g/	-bra-	2b-/	-bra-
.	.	.	.	.	.	1g	-ham	1b-	-ham	1b-	-ham	1b-	-ham
*	*	*	*	*	*	*	*Xij	*	*	*	*Xij	*	*Xij
=104-	=104-	=104-	=104-	=104-	=104-	=104-	=104-	=104-	=104-	=104-	=104-	=104-	=104-
*	*	*	*	*	*	*	*ij	*	*	*	*ij	*	*
0.r	.	0.r	.	0.r	.	1.f	A-	1.a	a-	1.a	A-	1.cc	A-
.	.	.	.	.	.	2f\	-bra-	2a\	-bra-	2a\	-bra-	2cc/	-bra-
.	.	.	.	.	.	1f	-ham	1a	-ham	1a	-ham	1cc	-ham
*	*	*	*	*	*	*	*Xij	*	*	*	*Xij	*	*
!	!	!	!	!	!	!	!	!	!	!	!	!LO:SIC:v:t=custos dd	!
!	!	!	!	!	!	!	!	!	!	!	!	!LO:PB:g=original	!
=105-	=105-	=105-	=105-	=105-	=105-	=105-	=105-	=105-	=105-	=105-	=105-	=105-	=105-
*	*	*	*	*	*	*	*ij	*	*	*	*	*	*
1.d	A-	1.f#X	A-	1.a	A-	1.d	A-	1.f#X	ab-	1.f#X	A-	1.dd	A-
!	!	!	!	!	!	!	!	!LO:SIC:v:t=custos f#	!	!	!	!	!
!	!	!	!	!	!	!	!	!LO:LB:g=original	!	!	!	!	!
2d\	-bra-	2f#/	-bra-	2a/	-bra-	2d\	-bra-	2f#/	-ra-	2f#/	-bra-	2dd\	-bra-
1d	-ham	1f#	-ham	1a	-ham	1d	-ham	1d	-ham	1d	-ham	1dd	-ham
*	*	*	*	*	*	*	*Xij	*	*	*	*	*	*
!LO:SIC:v:t=custos G	!	!LO:SIC:v:t=custos g	!	!	!	!	!	!	!	!	!	!	!
!LO:LB:g=original	!	!LO:PB:g=original	!	!	!	!	!	!	!	!	!	!	!
=106-	=106-	=106-	=106-	=106-	=106-	=106-	=106-	=106-	=106-	=106-	=106-	=106-	=106-
*	*ij	*	*ij	*	*ij	*	*	*	*	*	*	*	*
1.G	A-	1.g	A-	1.b-	A-	00.r	.	00.r	.	00.r	.	00.r	.
2G/	-bra-	2g/	-bra-	2b-/	-bra-	.	.	.	.	.	.	.	.
1G	-ham	1g	-ham	1b-	-ham	.	.	.	.	.	.	.	.
*	*Xij	*	*Xij	*	*Xij	*	*	*	*	*	*	*	*
=107-	=107-	=107-	=107-	=107-	=107-	=107-	=107-	=107-	=107-	=107-	=107-	=107-	=107-
*	*ij	*	*	*	*	*	*	*	*	*	*	*	*
1.F	A-	1.a	A-	1.cc	A-	.	.	.	.	.	.	.	.
2F/	-bra-	2a\	-bra-	2cc\	-bra-	.	.	.	.	.	.	.	.
1F	-ham	1a	-ham	1cc	-ham	.	.	.	.	.	.	.	.
*	*Xij	*	*	*	*	*	*	*	*	*	*	*	*
=108-	=108-	=108-	=108-	=108-	=108-	=108-	=108-	=108-	=108-	=108-	=108-	=108-	=108-
*	*ij	*	*ij	*	*ij	*	*	*	*	*	*	*	*
1.B-	A-	1.b-	A-	1.dd	A-	1B-	et	1dd	et	1dd	et	1ff	et
.	.	.	.	.	.	1B-	ſe-	1dd	se-	1dd	ſe-	1ff	ſe-
2B-/	-bra-	2b-\	-bra-	2dd\	-bra-	.	.	.	.	.	.	.	.
1B-	-ham	1b-	-ham	1dd	-ham	1B-	-mi-	1dd	-mi-	1dd	-mi-	1ff	-mi-
*	*Xij	*	*Xij	*	*Xij	*	*	*	*	*	*	*	*
=109-	=109-	=109-	=109-	=109-	=109-	=109-	=109-	=109-	=109-	=109-	=109-	=109-	=109-
1B-	et	1dd	et	1ff	et	0.B-	-ni	0.b-	-ni	0.b-	-ni	0.dd	-ni
1d	ſe-	1b-	ſe-	1ff	ſe-	.	.	.	.	.	.	.	.
1B-	-mi-	1b-	-mi-	1ff	-mi-	.	.	.	.	.	.	.	.
=110-	=110-	=110-	=110-	=110-	=110-	=110-	=110-	=110-	=110-	=110-	=110-	=110-	=110-
0d	-ni	0b-	-ni	0dd	-ni	1B-	et	1dd	et	1dd	et	1ff	et
.	.	.	.	.	.	1B-	ſe-	1b-	se-	1b-	ſe-	1ff	ſe-
1f	e-	1a	e-	1cc	e-	1F	-mi-	1cc	-mi-	1cc	-mi-	1ff	-mi-
!	!	!	!	!	!	!LO:SIC:v:t=custos B-	!	!	!	!LO:SIC:v:t=custos b-	!	!	!
!	!	!	!	!	!	!LO:PB:g=original	!	!	!	!LO:LB:g=original	!	!	!
=111-	=111-	=111-	=111-	=111-	=111-	=111-	=111-	=111-	=111-	=111-	=111-	=111-	=111-
0.B-	-ius	0.b-	-ius	0.dd	-ius	0B-	-ni	0b-	-ni	0b-	-ni	0dd	-ni
.	.	.	.	.	.	1B-	e-	1b-	e-	1b-	e-	1dd	e-
=112-	=112-	=112-	=112-	=112-	=112-	=112-	=112-	=112-	=112-	=112-	=112-	=112-	=112-
00.r	.	00.r	.	00.r	.	0F	-ius	0a	-ius	0a	-ius	0cc	-ius
.	.	.	.	.	.	1G	in	1g	in	1g	in	1b-	in
=113-	=113-	=113-	=113-	=113-	=113-	=113-	=113-	=113-	=113-	=113-	=113-	=113-	=113-
.	.	.	.	.	.	0d	sae-	0f#X	se-	0f#X	ſae-	0a	ſae-
.	.	.	.	.	.	1d	-cu-	1f#	-cu-	1f#	-cu-	1a	-cu-
=114-	=114-	=114-	=114-	=114-	=114-	=114-	=114-	=114-	=114-	=114-	=114-	=114-	=114-
1r	.	1r	.	1r	.	0G	-la	0g	-la	0g	-la	0.g	-la
1r	.	1r	.	1r	.	.	.	.	.	.	.	.	.
1G	in	1g	in	1g	in	1g	in	1b-	in	1b-	in	.	.
!	!	!	!	!LO:SIC:v:t=custos dd	!	!	!	!	!	!	!	!	!
!	!	!	!	!LO:LB:g=original	!	!	!	!	!	!	!	!	!
=115-	=115-	=115-	=115-	=115-	=115-	=115-	=115-	=115-	=115-	=115-	=115-	=115-	=115-
0d	ſae-	0f#X	ſae-	0d	ſae-	0d	sae-	0a	se-	0a	ſae-	00.r	.
1d	-cu-	1f#	-cu-	1d	-cu-	1d	-cu-	1a	-cu-	1a	-cu-	.	.
=116-	=116-	=116-	=116-	=116-	=116-	=116-	=116-	=116-	=116-	=116-	=116-	=116-	=116-
0.G	-la	0.g	-la	0.dd	-la	0.g	-la	0.g	-la	0.g	-la	.	.
!	!	!	!	!	!	!	!	!LO:LB:g=original	!	!	!	!	!
=117-	=117-	=117-	=117-	=117-	=117-	=117-	=117-	=117-	=117-	=117-	=117-	=117-	=117-
*M2/2	*	*M2/2	*	*M2/2	*	*M2/2	*	*M2/2	*	*M2/2	*	*M2/2	*
*met(C|)	*	*met(C|)	*	*met(C|)	*	*met(C|)	*	*met(C|)	*	*met(C|)	*	*met(C|)	*
2r	.	1r	.	2r	.	2r	.	2r	.	2r	.	2r	.
*	*	*	*	*	*	*	*ij	*	*	*	*	*	*
2c/	in	.	.	2cc\	in	2g\	in	(>4g\	in	4g\	in	2ee-X\	in
.	.	.	.	.	.	.	.	4a\)	.	4a\	ſae-	.	.
=118-	=118-	=118-	=118-	=118-	=118-	=118-	=118-	=118-	=118-	=118-	=118-	=118-	=118-
2.B-/	ſae-	2r	.	2.dd\	sae-	2.d\	sae-	2.b-\	se-	2.b-\	cu-	1.dd	sae-
.	.	2g/	in	.	.	.	.	.	.	.	.	.	.
4c/	.	.	.	8cc\L	.	4e\	-cu-	8a\L	-cu-	8a\L	.	.	.
.	.	.	.	8b-\J	.	.	.	8g\J	.	8g\J	.	.	.
=119-	=119-	=119-	=119-	=119-	=119-	=119-	=119-	=119-	=119-	=119-	=119-	=119-	=119-
1.d	-cu-	4.d/	ſae-	2a/	.	2f\	-la	2fny/	-la	2fny/	-la	.	.
*	*	*	*	*	*	*	*Xij	*	*	*	*	*	*
.	.	8d/	-cu-	.	.	.	.	.	.	.	.	.	.
.	.	4e/	-la	2g/	.	2d\	in	2d/	in	2d/	in	2dd\	-cu-
.	.	4e/	in	.	.	.	.	.	.	.	.	.	.
=120-	=120-	=120-	=120-	=120-	=120-	=120-	=120-	=120-	=120-	=120-	=120-	=120-	=120-
!	!	!	!	!	!	!	!	!	!	!	!	!LO:N:vis=0	!
!	!	!LO:TX:t=P:problem=krzyżyk zapisany przed poprzednią nutą	!	!	!	!	!	!	!	!	!	!LO:TX:t=P:rytm:problem	!
.	.	2.f#X/	ſae-	2.a/	.	2.d\	sae-	2.dd\	se-	2.dd\	ſae-	0.dd;;	-la
2d\	-cu-	.	.	.	.	.	.	.	.	.	.	.	.
.	.	4f#/	-cu-	4a/	-cu-	4d\	-cu-	4dd\	-cu-	4dd\	-cu-	.	.
=121-	=121-	=121-	=121-	=121-	=121-	=121-	=121-	=121-	=121-	=121-	=121-	=121-	=121-
!	!	!	!	!LO:N:acc=#	!	!	!	!LO:N:acc=#	!	!LO:N:acc=#	!	!	!
0G;;	-la	0g;;	-la	0bn;;	-la.	0g;;	-la.	0bn;;	-la	0bn;;	-la	.	.
!LO:PB:g=original	!	!LO:LB:g=original	!	!LO:LB:g=original	!	!LO:LB:g=original	!	!	!	!	!	!	!
=122||-	=122||-	=122||-	=122||-	=122||-	=122||-	=122||-	=122||-	=122||-	=122||-	=122||-	=122||-	=122||-	=122||-
*M3/1	*	*M3/1	*	*M3/1	*	*M3/1	*	*M3/1	*	*M3/1	*	*M3/1	*
!LO:TX:t=P:problem=w źródle metrum 3/2	!	!LO:TX:t=P:problem=w źródle metrum 3/2	!	!LO:TX:t=P:problem=w źródle metrum 3/2	!	!LO:TX:t=P:problem=w źródle metrum 3/2	!	!LO:TX:t=P:problem=w źródle metrum 3/2	!	!LO:TX:t=P:problem=w źródle metrum 3/2	!	!LO:TX:t=P:problem=w źródle metrum 3/2	!
00.r	.	00.r	.	00.r	.	0g	Si-	0g	Si-	0g	Si-	0g	Si-
.	.	.	.	.	.	1d	-cut	1f	-cut	1f	-cut	1dd	-cut
=123-	=123-	=123-	=123-	=123-	=123-	=123-	=123-	=123-	=123-	=123-	=123-	=123-	=123-
.	.	.	.	.	.	0f	e-	0a	e-	0a	e-	0a	e-
.	.	.	.	.	.	1c	-rat	1e	-rat	1e	-rat	1cc	-rat
=124-	=124-	=124-	=124-	=124-	=124-	=124-	=124-	=124-	=124-	=124-	=124-	=124-	=124-
0.r	.	0.r	.	0.r	.	0G	in	0g	in	0g	in	0b-	in
.	.	.	.	.	.	1d	Prin-	1f#X	prin-	1f#X	Prin-	1a	Prin-
=125-	=125-	=125-	=125-	=125-	=125-	=125-	=125-	=125-	=125-	=125-	=125-	=125-	=125-
0g	Si-	0b-	Si-	0g	Si-	1.G	-ci-	1.g	-ci-	1.g	-ci-	1.g	-ci-
.	.	.	.	.	.	2G/	-pi-	2g/	-pi-	2g/	-pi-	2g/	-pi-
!	!	!	!	!	!	!	!	!LO:SIC:v:t=custos g	!	!	!	!	!
!	!	!	!	!	!	!	!	!LO:LB:g=original	!	!	!	!	!
1d	-cut	1b-	-cut	1dd	-cut	1G	-o	1g	-o	1g	-o	1g	-o
=126-	=126-	=126-	=126-	=126-	=126-	=126-	=126-	=126-	=126-	=126-	=126-	=126-	=126-
0f	e-	0a	e-	0a	e-	00.r	.	00.r	.	00.r	.	00.r	.
1c	-rat	1e	-rat	1cc	-rat	.	.	.	.	.	.	.	.
=127-	=127-	=127-	=127-	=127-	=127-	=127-	=127-	=127-	=127-	=127-	=127-	=127-	=127-
0G	in	0g	in	0b-y	in	.	.	.	.	.	.	.	.
!	!	!LO:TX:t=P:problem=# below	!	!	!	!	!	!	!	!	!	!	!
1d	Prin-	1f#X	Prin-	1a	Prin-	.	.	.	.	.	.	.	.
=128-	=128-	=128-	=128-	=128-	=128-	=128-	=128-	=128-	=128-	=128-	=128-	=128-	=128-
1.G	-ci-	1.g	-ci-	1.g	-ci-	1r	.	1r	.	1r	.	1r	.
.	.	.	.	.	.	1r	.	1r	.	1r	.	1r	.
2G/	-pi-	2g/	-pi-	2g/	-pi-	.	.	.	.	.	.	.	.
1G	-o	1g	-o	1g	-o	1d	et	1b-y	et	1b-y	et	1dd	et
=129-	=129-	=129-	=129-	=129-	=129-	=129-	=129-	=129-	=129-	=129-	=129-	=129-	=129-
1%3r	.	1%3r	.	1%3r	.	0c#X	nunc	0a	nunc	0a	nunc	0eeny	nunc
.	.	.	.	.	.	1c#	et	1a	et	1a	et	1ee	et
=130-	=130-	=130-	=130-	=130-	=130-	=130-	=130-	=130-	=130-	=130-	=130-	=130-	=130-
1r	.	1r	.	1r	.	0.d	sem-	1.fny	sem-	1.fny	ſem-	0.ff	ſem-
1r	.	1r	.	1r	.	.	.	.	.	.	.	.	.
.	.	.	.	.	.	.	.	2e/	.	2e/	.	.	.
1d	et	1a	et	1dd	et	.	.	2f/	.	2f/	.	.	.
.	.	.	.	.	.	.	.	2g/	.	2g/	.	.	.
!	!	!	!	!	!	!	!	!	!	!LO:SIC:v:t=custos a	!	!	!
!	!	!	!	!	!	!	!	!	!	!LO:LB:g=original	!	!	!
=131-	=131-	=131-	=131-	=131-	=131-	=131-	=131-	=131-	=131-	=131-	=131-	=131-	=131-
0c#X	nunc	0a	nunc	0ee	nunc	0.A	-per	0.a	-per	0.a	-per	0.ee	-per
1c#	et	1e	et	1ee	et	.	.	.	.	.	.	.	.
=132-	=132-	=132-	=132-	=132-	=132-	=132-	=132-	=132-	=132-	=132-	=132-	=132-	=132-
0.d	sem-	1.d	ſem-	0.ff	sem-	1r	.	1r	.	1r	.	1r	.
.	.	.	.	.	.	1r	.	1r	.	1r	.	1r	.
.	.	2e/	.	.	.	.	.	.	.	.	.	.	.
*	*	*	*	*	*	*	*	*	*	*	*	*	*ij
.	.	2fny/	.	.	.	1d	et	1a	et	1a	et	1dd	et
.	.	2g/	.	.	.	.	.	.	.	.	.	.	.
=133-	=133-	=133-	=133-	=133-	=133-	=133-	=133-	=133-	=133-	=133-	=133-	=133-	=133-
0.A	-per	0.a	-per	0.ee	-per	0c#X	nunc	0a	nunc	0a	nunc	0ee	nunc
.	.	.	.	.	.	1c#	et	1e	et	1e	et	1ee	et
!	!	!	!	!	!	!LO:SIC:v:t=custos d	!	!	!	!	!	!	!
!	!	!	!	!	!	!LO:LB:g=original	!	!	!	!	!	!	!
=134-	=134-	=134-	=134-	=134-	=134-	=134-	=134-	=134-	=134-	=134-	=134-	=134-	=134-
1r	.	1r	.	1r	.	0.d	sem-	1.d	sem-	1.d	sem-	0.ff	ſem-
1r	.	1r	.	1r	.	.	.	.	.	.	.	.	.
.	.	.	.	.	.	.	.	2e/	.	2e/	.	.	.
*	*ij	*	*	*	*	*	*	*	*	*	*	*	*
1d	et	1a	et	1dd	et	.	.	2f/	.	2f/	.	.	.
.	.	.	.	.	.	.	.	2g/	.	2g/	.	.	.
=135-	=135-	=135-	=135-	=135-	=135-	=135-	=135-	=135-	=135-	=135-	=135-	=135-	=135-
0c#X	nunc	0a	nunc	0ee	nunc	0A	-per	0a	-per	0a	-per	0ee	-per
*	*	*	*	*	*	*	*	*	*	*	*	*	*Xij
1c#	et	1e	et	1ee	et	1A	et	1a	et	1a	et	1ee	et
!	!	!LO:SIC:v:t=custos a	!	!	!	!	!	!	!	!	!	!	!
!	!	!LO:LB:g=original	!	!	!	!	!	!	!	!	!	!	!
=136-	=136-	=136-	=136-	=136-	=136-	=136-	=136-	=136-	=136-	=136-	=136-	=136-	=136-
!	!	!	!	!	!	!	!	!LO:TX:t=P:problem=kropka w następnym systemie	!	!	!	!	!
0d	sem-	1.a	ſem-	0ff	sem-	0d	nunc	1.f	nunc	1.f	nunc	0dd	nunc
!	!	!	!	!	!	!	!	!LO:SIC:v:t=custos g	!	!	!	!	!
!	!	!	!	!	!	!	!	!LO:LB:g=original	!	!	!	!	!
.	.	2b-\	.	.	.	.	.	2g/	.	2g/	.	.	.
!	!	!	!	!	!	!	!	!	!	!	!	!LO:SIC:v:t=custos cc#	!
!	!	!	!	!	!	!	!	!	!	!	!	!LO:LB:g=original	!
!	!	!LO:SIC:v:s:t=1cc#	!	!	!	!	!	!	!	!	!	!	!
!	!	!	!	!LO:SIC:v:t=custos ee	!	!	!	!	!	!	!	!	!
!	!	!	!	!LO:LB:g=original	!	!	!	!	!	!	!	!	!
1A	-per	(>1cc	-per	1ee	-per	1A	et	1a	.	1a	.	1cc#X	et
*	*Xij	*	*	*	*	*	*	*	*	*	*	*	*
!LO:SIC:v:t=custos B-	!	!	!	!	!	!	!	!	!	!	!	!	!
!LO:LB:g=original	!	!	!	!	!	!	!	!	!	!	!	!	!
=137-	=137-	=137-	=137-	=137-	=137-	=137-	=137-	=137-	=137-	=137-	=137-	=137-	=137-
!	!	!	!	!	!	!	!	!LO:TX:t=P:problem=niewyraźne źródło	!	!	!	!	!
1B-	et	1b-)	.	1dd	et	1d	sem-	1d	et	1d	et	1dd	sem-
*lig	*	*	*	*lig	*	*	*	*lig	*	*lig	*	*	*
1G	sem-	1b-	et	1gg	sem-	1d	-per	1d	sem-	1d	sem-	1dd	-per
1A	.	1a	ſem-	1ee	.	1r	.	1c	.	1c	.	1r	.
*Xlig	*	*	*	*Xlig	*	*	*	*Xlig	*	*Xlig	*	*	*
=138-	=138-	=138-	=138-	=138-	=138-	=138-	=138-	=138-	=138-	=138-	=138-	=138-	=138-
0.d	-per	0.a	-per	0.ff#X	-per	1%3r	.	0.d,>	-per	0.d	-per	1%3r	.
=139-	=139-	=139-	=139-	=139-	=139-	=139-	=139-	=139-	=139-	=139-	=139-	=139-	=139-
00.r	.	00.r	.	00.r	.	0G	et	0g	et	0g	et	0gg	et
.	.	.	.	.	.	1cny	in	1g	in	1g	in	1ee	in
=140-	=140-	=140-	=140-	=140-	=140-	=140-	=140-	=140-	=140-	=140-	=140-	=140-	=140-
.	.	.	.	.	.	1.F	ſae-	1.a	se-	1.a	ſae-	1.ff	sae-
.	.	.	.	.	.	2F/	-cu-	2a\	-cu-	2a\	-cu-	2ff\	-cu-
.	.	.	.	.	.	1B-	-la	1b-	-la	1b-	-la	1dd	-la
=141-	=141-	=141-	=141-	=141-	=141-	=141-	=141-	=141-	=141-	=141-	=141-	=141-	=141-
00.r	.	00.r	.	00.r	.	0f	ſae-	0a	se-	0a	ſae-	0ccny	sae-
.	.	.	.	.	.	1g	-cu-	1g	-cu-	1g	-cu-	1b-	-cu-
!	!	!	!	!	!	!	!	!	!	!LO:SIC:v:t=custos f#	!	!	!
!	!	!	!	!	!	!	!	!	!	!LO:LB:g=original	!	!	!
=142-	=142-	=142-	=142-	=142-	=142-	=142-	=142-	=142-	=142-	=142-	=142-	=142-	=142-
.	.	.	.	.	.	0d	-lo-	0f#X	-lo-	0f#X	-lo-	0a	-lo-
.	.	.	.	.	.	1d	-rum	1f#	-rum	1f#	-rum	1a	-rum
=143-	=143-	=143-	=143-	=143-	=143-	=143-	=143-	=143-	=143-	=143-	=143-	=143-	=143-
*	*	*	*	*	*	*	*ij	*	*	*	*	*	*
0G	et	0g	et	0gg	et	0g	et	00.r	.	00.r	.	00.r	.
1cny	in	1g	in	1ee	in	1c	in	.	.	.	.	.	.
=144-	=144-	=144-	=144-	=144-	=144-	=144-	=144-	=144-	=144-	=144-	=144-	=144-	=144-
1.F	sae-	1.a	ſae-	1.ffny	sae-	1.f	ſae-	.	.	.	.	.	.
2F/	-cu-	2a\	-cu-	2ff\	-cu-	2f\	-cu-	.	.	.	.	.	.
1B-	-la	1b-	-la	1dd	-la	1B-	-la	.	.	.	.	.	.
=145-	=145-	=145-	=145-	=145-	=145-	=145-	=145-	=145-	=145-	=145-	=145-	=145-	=145-
0F	sae-	0a	ſae-	0cc	ſae-	0f	ſae-	00.r	.	00.r	.	00.r	.
1G	-cu-	1g	-cu-	1b-	-cu-	1d	-cu-	.	.	.	.	.	.
!	!	!	!	!	!	!LO:SIC:v:t=custos d	!	!	!	!	!	!	!
!	!	!	!	!	!	!LO:LB:g=original	!	!	!	!	!	!	!
=146-	=146-	=146-	=146-	=146-	=146-	=146-	=146-	=146-	=146-	=146-	=146-	=146-	=146-
0d	-lo-	0f#X	-lo-	0a	-lo-	0d	-lo-	.	.	.	.	.	.
1d	-rum	1f#	-rum	1a	-rum	1d	-rum	.	.	.	.	.	.
*	*	*	*	*	*	*	*Xij	*	*	*	*	*	*
=147-	=147-	=147-	=147-	=147-	=147-	=147-	=147-	=147-	=147-	=147-	=147-	=147-	=147-
00.r	.	00.r	.	00.r	.	0g	et	0g	et	0g	et	0g	et
.	.	.	.	.	.	1d	in	1fny	in	1fny	in	1dd	in
=148-	=148-	=148-	=148-	=148-	=148-	=148-	=148-	=148-	=148-	=148-	=148-	=148-	=148-
.	.	.	.	.	.	1.f	sae-	1.a	se-	1.a	sae-	1.a	sae-
.	.	.	.	.	.	2f\	-cu-	2a\	-cu-	2a\	-cu-	2a/	-cu-
.	.	.	.	.	.	1c	-la	1e	-la	1e	-la	1cc	-la
=149-	=149-	=149-	=149-	=149-	=149-	=149-	=149-	=149-	=149-	=149-	=149-	=149-	=149-
!	!	!	!	!	!	!	!	!LO:SIC:v:l:t=custos słowny cu	!	!	!	!	!
00.r	.	00.r	.	00.r	.	0G	sae-	0g	se-	0g	ſae-	0b-	sae-
!	!	!	!	!	!	!	!	!LO:SIC:v:t=custos g	!	!	!	!	!
!	!	!	!	!	!	!	!	!LO:PB:g=original	!	!	!	!	!
.	.	.	.	.	.	1G	-cu-	1g	-cu-	1g	-cu-	1b-	-cu-
=150-	=150-	=150-	=150-	=150-	=150-	=150-	=150-	=150-	=150-	=150-	=150-	=150-	=150-
.	.	.	.	.	.	0d	-lo-	0f#X	-lo-	0f#X	-lo-	0a	-lo-
.	.	.	.	.	.	1G	-rum	1g	-rum	1g	-rum	1g	-rum
=151-	=151-	=151-	=151-	=151-	=151-	=151-	=151-	=151-	=151-	=151-	=151-	=151-	=151-
*	*	*	*ij	*	*ij	*	*	*	*	*	*	*	*
0g	et	0g	et	0g	et	00.r	.	00.r	.	00.r	.	00.r	.
1d	in	1fny	in	1dd	in	.	.	.	.	.	.	.	.
=152-	=152-	=152-	=152-	=152-	=152-	=152-	=152-	=152-	=152-	=152-	=152-	=152-	=152-
1.f	sae-	1.a	ſae-	1.a	sae-	.	.	.	.	.	.	.	.
2f\	-cu-	2a\	-cu-	2a/	-cu-	.	.	.	.	.	.	.	.
1c	-la	1e	-la	1cc	-la	.	.	.	.	.	.	.	.
=153-	=153-	=153-	=153-	=153-	=153-	=153-	=153-	=153-	=153-	=153-	=153-	=153-	=153-
0G	sae-	0g	ſae-	0b-	ſae-	0g	sae-	0b-	se-	0b-	ſae-	00.r	.
1G	-cu-	1g	-cu-	1b-	-cu-	1g	-cu-	1g	-cu-	1g	-cu-	.	.
=154-	=154-	=154-	=154-	=154-	=154-	=154-	=154-	=154-	=154-	=154-	=154-	=154-	=154-
0d	-lo-	0f#X	-lo-	0a	-lo-	0d	-lo-	0a	-lo-	0a	-lo-	.	.
!	!	!	!	!	!	!	!	!LO:TX:t=P:problem=# below	!	!LO:TX:t=P:problem=# above	!	!	!
!	!	!	!	!	!	!	!	!LO:N:acc=#	!	!LO:N:acc=#	!	!	!
1G	-rum	1g	-rum	1g	-rum	1g	-rum	1bn	-rum	1bn	-rum	.	.
*	*	*	*Xij	*	*Xij	*	*	*	*	*	*	*	*
=155-	=155-	=155-	=155-	=155-	=155-	=155-	=155-	=155-	=155-	=155-	=155-	=155-	=155-
!	!	!	!	!	!	!	!	!	!	!LO:TX:t=P:problem=niewyraźe źródło	!	!	!
00.r	.	00.r	.	00.r	.	1%3r	.	1%3r	.	1%3ryy	.	0f	sae-
.	.	.	.	.	.	.	.	.	.	.	.	1g	-cu-
!	!	!	!	!	!	!	!	!	!	!	!	!LO:SIC:v:t=custos a	!
!	!	!	!	!	!	!	!	!	!	!	!	!LO:LB:g=original	!
=156-	=156-	=156-	=156-	=156-	=156-	=156-	=156-	=156-	=156-	=156-	=156-	=156-	=156-
*	*	*	*	*	*	*	*ij	*	*	*	*ij	*	*
.	.	.	.	.	.	0d	sae-	0fny	se-	0fny	ſae-	0a	-lo-
.	.	.	.	.	.	1G	-cu-	1g	-cu-	1g	-cu-	1g	-rum
!	!	!	!	!LO:SIC:v:t=custos f	!	!	!	!	!	!	!	!	!
!	!	!	!	!LO:LB:g=original	!	!	!	!	!	!	!	!	!
=157-	=157-	=157-	=157-	=157-	=157-	=157-	=157-	=157-	=157-	=157-	=157-	=157-	=157-
0d	sae-	0a	ſae-	0f	sae-	0d	-lo-	0a	-lo-	0a	-lo-	00.r	.
!	!	!LO:SIC:v:t=custos g	!	!	!	!	!	!	!	!	!	!	!
!	!	!LO:LB:g=original	!	!	!	!	!	!	!	!	!	!	!
!	!	!	!	!	!	!	!	!LO:TX:t=P:problem=# below	!	!	!	!	!
!	!	!	!	!	!	!	!	!LO:N:acc=#	!	!LO:N:acc=#	!	!	!
1G	-cu-	1g	-cu-	1g	-cu-	1g	-rum	1bn	-rum	1bn	-rum	.	.
*	*	*	*	*	*	*	*Xij	*	*	*	*Xij	*	*
=158-	=158-	=158-	=158-	=158-	=158-	=158-	=158-	=158-	=158-	=158-	=158-	=158-	=158-
0d	-lo-	0f#X	-lo-	0a	-l-	00.r	.	00.r	.	00.r	.	.	.
1G	-rum	1g	-rum	1g	-rum	.	.	.	.	.	.	.	.
=159-	=159-	=159-	=159-	=159-	=159-	=159-	=159-	=159-	=159-	=159-	=159-	=159-	=159-
00.r	.	00.r	.	00.r	.	.	.	.	.	.	.	0cc	et
.	.	.	.	.	.	.	.	.	.	.	.	1a	in
=160-	=160-	=160-	=160-	=160-	=160-	=160-	=160-	=160-	=160-	=160-	=160-	=160-	=160-
.	.	.	.	.	.	0.r	.	0.r	.	0.r	.	1.b-	ſae-
.	.	.	.	.	.	.	.	.	.	.	.	2cc\	-cu-
.	.	.	.	.	.	.	.	.	.	.	.	1dd	-la
!LO:SIC:v:t=custos F	!	!	!	!	!	!	!	!	!	!	!	!	!
!LO:LB:g=original	!	!	!	!	!	!	!	!	!	!	!	!	!
=161-	=161-	=161-	=161-	=161-	=161-	=161-	=161-	=161-	=161-	=161-	=161-	=161-	=161-
0F	et	0fny	et	0cc	et	0f	et	0a	et	0a	et	00.r	.
1F	in	1f	in	1a	in	1f	in	1f	in	1f	in	.	.
!	!	!	!	!	!	!	!	!	!	!LO:SIC:v:t=custos f	!	!	!
!	!	!	!	!	!	!	!	!	!	!LO:PB:g=original	!	!	!
=162-	=162-	=162-	=162-	=162-	=162-	=162-	=162-	=162-	=162-	=162-	=162-	=162-	=162-
1.B-	sae-	1.f	ſae-	1.b-	sae-	1.B-	sae-	1.f	se-	1.f	ſae-	.	.
2B-/	-cu-	2f/	-cu-	2cc\	-cu-	2B-/	-cu-	2f/	-cu-	2f/	-cu-	.	.
1B-	-la	1d	-la	1dd	-la	1B-	-la	1f	-la	1f	-la	.	.
=163-	=163-	=163-	=163-	=163-	=163-	=163-	=163-	=163-	=163-	=163-	=163-	=163-	=163-
00.r	.	00.r	.	00.r	.	00.r	.	00.r	.	00.r	.	1.cc	Sae-
.	.	.	.	.	.	.	.	.	.	.	.	2b-\	-cu-
.	.	.	.	.	.	.	.	.	.	.	.	2a/	-lo-
.	.	.	.	.	.	.	.	.	.	.	.	2g/	-rum
=164-	=164-	=164-	=164-	=164-	=164-	=164-	=164-	=164-	=164-	=164-	=164-	=164-	=164-
.	.	.	.	.	.	.	.	.	.	.	.	0a	A-
.	.	.	.	.	.	.	.	.	.	.	.	1g	-men
!	!	!	!	!	!	!LO:SIC:v:t=custos d	!	!	!	!	!	!	!
!	!	!	!	!	!	!LO:LB:g=original	!	!	!	!	!	!	!
=165-	=165-	=165-	=165-	=165-	=165-	=165-	=165-	=165-	=165-	=165-	=165-	=165-	=165-
0d	A-	0f#X	A-	0a	A-	0d	A-	0a	a-	0a	A-	00.r	.
!	!	!	!	!	!	!	!	!LO:TX:t=P:problem=# below	!	!LO:TX:t=P:problem=# above	!	!	!
!	!	!	!	!	!	!	!	!LO:N:acc=#	!	!LO:N:acc=#	!	!	!
1G	-men	1g	-men	1g	-men	1g	-men	1bn	-men	1bn	-men	.	.
=166-	=166-	=166-	=166-	=166-	=166-	=166-	=166-	=166-	=166-	=166-	=166-	=166-	=166-
0g	sae-	0b-	ſae-	00.r	.	1%3r	.	00.r	.	00.r	.	.	.
1f	-cu-	1a	-cu-	.	.	.	.	.	.	.	.	.	.
=167-	=167-	=167-	=167-	=167-	=167-	=167-	=167-	=167-	=167-	=167-	=167-	=167-	=167-
0e-X	-lo-	0g	-lo-	.	.	0g	sae-	.	.	.	.	1%3r	.
1d	-rum	1d	-rum	.	.	1f	-cu-	.	.	.	.	.	.
=168-	=168-	=168-	=168-	=168-	=168-	=168-	=168-	=168-	=168-	=168-	=168-	=168-	=168-
0c	A-	0g	A-	0.r	.	0e-X	-lo-	0.r	.	1%3r	.	0gg	sae-
!	!	!	!	!	!	!	!	!	!	!	!	!LO:TX:t=P:problem=niewyraźe źródło	!
1d	-men	1g	-men	.	.	1d	-rum	.	.	.	.	1ryy	-cu-
!	!	!	!	!	!	!	!	!LO:SIC:v:t=custos g	!	!	!	!	!
!	!	!	!	!	!	!	!	!LO:LB:g=original	!	!	!	!	!
=169-	=169-	=169-	=169-	=169-	=169-	=169-	=169-	=169-	=169-	=169-	=169-	=169-	=169-
0e-X	sae-	1%3r	.	0gg	ſae-	0c	A-	0g	se-	0g	ſae-	0ee-X	-lo-
1B-	-cu-	.	.	1ff	-cu-	1d	-men	1g	-cu-	1g	-cu-	1dd	-rum
=170-	=170-	=170-	=170-	=170-	=170-	=170-	=170-	=170-	=170-	=170-	=170-	=170-	=170-
*	*	*	*	*	*	*2\right	*ij	*	*	*	*	*	*
0c	-lo-	0g	A-	0ee-X	-lo-	2e-X\	sae-	0g	-lo-	0g	-lo-	0cc	A-
.	.	.	.	.	.	2d\	-cu-	.	.	.	.	.	.
.	.	.	.	.	.	2e-\	-lo-	.	.	.	.	.	.
.	.	.	.	.	.	2f\	.	.	.	.	.	.	.
*	*	*	*	*	*	*	*Xij	*	*	*	*	*	*
1G	-rum	1g	-men	1dd	-rum	1g	-rum	1g	-rum	1g	-rum	1dd	-men
=171-	=171-	=171-	=171-	=171-	=171-	=171-	=171-	=171-	=171-	=171-	=171-	=171-	=171-
0.c	A-	1.e-X	A-	0.cc	A-	0.c	A-	1.g	a-	1.g	A-	0.ee-X	A-
.	.	2d/	.	.	.	.	.	2f/	.	2f/	.	.	.
.	.	2e-/	.	.	.	.	.	2g/	.	2g/	.	.	.
.	.	2fny/	.	.	.	.	.	2a\	.	2a\	.	.	.
=172-	=172-	=172-	=172-	=172-	=172-	=172-	=172-	=172-	=172-	=172-	=172-	=172-	=172-
!	!	!	!	!LO:N:acc=#	!	!	!	!LO:N:acc=#	!	!LO:N:acc=#	!	!	!
!	!	!	!	!	!	!	!	!LO:TX:t=P:problem=# below	!	!	!	!	!
0G;;	-men	0g;;	-men	0bn;;	-men	0g;;	-men.	0bn;;	-men;	0bn;;	-men	0dd;;	-men.
=-	=-	=-	=-	=-	=-	=-	=-	=-	=-	=-	=-	=-	=-
*-	*-	*-	*-	*-	*-	*-	*-	*-	*-	*-	*-	*-	*-
!!!system-decoration: [(g1)][(g2)]
!!!AIN: 7 empty
!!!ENC: Anastazja Marusiak
!!!END: 2021-10-21
!!!EED: Jędrzej Mróz
!!!ESR: 2021-10-25
!!!RDF**kern: > = above
!!!RDF**kern: < = below
